;FLAVOR:UltiGCode
;TIME:3543
;MATERIAL:10150
;MATERIAL2:0
;NOZZLE_DIAMETER:0.8
;MINX:87.97
;MINY:73.645
;MINZ:0.53
;MAXX:135.2
;MAXY:150.51
;MAXZ:26.93
;Generated with Cura_SteamEngine 4.11.0
M82 ;absolute extrusion mode
G0 F3000 Y50 ;avoid prime blob
G92 E0
G92 E0
G10
;LAYER_COUNT:133
;LAYER:0
M107
G0 F5400 X91.169 Y77.16 Z0.53
;TYPE:SKIRT
G11
G1 F1800 X91.6 Y76.719 E0.22877
G1 X91.77 Y76.568 E0.31313
G1 X92.274 Y76.147 E0.55677
G1 X92.815 Y75.715 E0.81362
G1 X93.385 Y75.334 E1.06798
G1 X94.084 Y74.95 E1.36386
G1 X94.699 Y74.631 E1.62089
G1 X95.334 Y74.367 E1.87603
G1 X96.068 Y74.133 E2.16185
G1 X96.184 Y74.098 E2.2068
G1 X96.785 Y73.926 E2.43872
G1 X97.31 Y73.813 E2.63796
G1 X97.95 Y73.733 E2.87724
G1 X98.053 Y73.722 E2.91567
G1 X98.924 Y73.646 E3.24004
G1 X99.613 Y73.645 E3.49566
G1 X100.379 Y73.709 E3.78084
G1 X100.501 Y73.721 E3.82632
G1 X101.327 Y73.815 E4.13474
G1 X104.036 Y74.085 E5.14476
G1 X106.764 Y74.277 E6.15935
G1 X109.43 Y74.389 E7.14931
G1 X112.173 Y74.428 E8.16707
G1 X114.91 Y74.389 E9.1826
G1 X117.569 Y74.276 E10.16998
G1 X121.646 Y73.958 E11.68714
G1 X122.164 Y73.908 E11.88021
G1 X122.881 Y73.848 E12.14715
G1 X123.565 Y73.849 E12.40091
G1 X124.348 Y73.917 E12.6925
G1 X125.032 Y73.994 E12.94786
G1 X125.718 Y74.132 E13.20747
G1 X126.438 Y74.343 E13.48582
G1 X127.132 Y74.563 E13.75592
G1 X127.767 Y74.825 E14.01077
G1 X128.5 Y75.205 E14.31709
G1 X129.07 Y75.517 E14.55816
G1 X129.648 Y75.902 E14.81582
G1 X130.242 Y76.375 E15.09753
G1 X130.82 Y76.862 E15.37793
G1 X131.237 Y77.269 E15.59411
G1 X131.43 Y77.489 E15.70269
G1 X131.827 Y77.964 E15.93236
G1 X132.262 Y78.512 E16.19194
G1 X132.635 Y79.072 E16.44156
G1 X133.026 Y79.782 E16.74228
G1 X133.322 Y80.365 E16.98485
G1 X133.552 Y80.917 E17.20671
G1 X133.824 Y81.738 E17.52758
G1 X133.868 Y81.881 E17.58309
G1 X134.032 Y82.445 E17.801
G1 X134.169 Y83.133 E18.06126
G1 X134.256 Y83.936 E18.36091
G1 X134.313 Y84.615 E18.61371
G1 X134.319 Y85.205 E18.83261
G1 X134.305 Y85.417 E18.91143
G1 X134.262 Y85.936 E19.10464
G1 X134.076 Y88.624 E20.10427
G1 X133.963 Y91.36 E21.1202
G1 X133.929 Y94.067 E22.12457
G1 X133.971 Y96.807 E23.14123
G1 X134.09 Y99.509 E24.14465
G1 X134.282 Y102.169 E25.13407
G1 X134.56 Y104.922 E26.16063
G1 X134.836 Y107.098 E26.97439
G1 X135.024 Y108.457 E27.48338
G1 X135.095 Y109.077 E27.71491
G1 X135.141 Y109.541 E27.8879
G1 X135.199 Y110.212 E28.13777
G1 X135.2 Y110.903 E28.39413
G1 X135.131 Y111.707 E28.69351
G1 X135.101 Y112.009 E28.8061
G1 X135.007 Y112.814 E29.10678
G1 X134.947 Y113.226 E29.26125
G1 X134.621 Y115.286 E30.03502
G1 X134.271 Y117.999 E31.04988
G1 X134 Y120.695 E32.05514
G1 X133.804 Y123.429 E33.07206
G1 X133.687 Y126.095 E34.0621
G1 X133.646 Y128.827 E35.07578
G1 X133.681 Y131.54 E36.08239
G1 X133.794 Y134.265 E37.09423
G1 X134.025 Y137.292 E38.22051
G1 X134.026 Y137.473 E38.28767
G1 X134.124 Y138.624 E38.71623
G1 X134.132 Y139.212 E38.9344
G1 X134.059 Y140.128 E39.27531
G1 X133.964 Y140.944 E39.5801
G1 X133.871 Y141.451 E39.77133
G1 X133.817 Y141.654 E39.84926
G1 X133.548 Y142.579 E40.20665
G1 X133.398 Y143.048 E40.38934
G1 X133.174 Y143.601 E40.61069
G1 X132.938 Y144.081 E40.80913
G1 X132.71 Y144.51 E40.98937
G1 X132.368 Y145.124 E41.25012
G1 X132.048 Y145.613 E41.46693
G1 X131.834 Y145.891 E41.59709
G1 X131.494 Y146.316 E41.79901
G1 X130.989 Y146.913 E42.08911
G1 X130.509 Y147.39 E42.34017
G1 X129.85 Y147.943 E42.65933
G1 X129.293 Y148.386 E42.92337
G1 X128.732 Y148.76 E43.17351
G1 X128.086 Y149.116 E43.44716
G1 X127.362 Y149.493 E43.75
G1 X126.722 Y149.759 E44.00713
G1 X125.984 Y149.993 E44.29436
G1 X125.216 Y150.216 E44.59106
G1 X124.532 Y150.352 E44.84979
G1 X123.677 Y150.446 E45.16891
G1 X122.978 Y150.505 E45.42916
G1 X122.375 Y150.51 E45.65288
G1 X121.749 Y150.463 E45.88578
G1 X121.256 Y150.416 E46.06951
G1 X120.472 Y150.335 E46.36192
G1 X117.784 Y150.096 E47.36311
G1 X115.056 Y149.933 E48.377
G1 X112.348 Y149.847 E49.38217
G1 X109.642 Y149.837 E50.38611
G1 X106.905 Y149.905 E51.40185
G1 X104.224 Y150.047 E52.39789
G1 X101.124 Y150.305 E53.55197
G1 X100.546 Y150.362 E53.76745
G1 X99.841 Y150.422 E54.02995
G1 X99.152 Y150.422 E54.28557
G1 X98.311 Y150.349 E54.59875
G1 X97.582 Y150.267 E54.87091
G1 X96.909 Y150.132 E55.12557
G1 X96.159 Y149.914 E55.41534
G1 X95.425 Y149.683 E55.70082
G1 X94.912 Y149.482 E55.90523
G1 X94.578 Y149.323 E56.04247
G1 X93.991 Y149.026 E56.28653
G1 X93.464 Y148.751 E56.50707
G1 X92.783 Y148.302 E56.80969
G1 X92.125 Y147.767 E57.12432
G1 X91.471 Y147.188 E57.44838
G1 X91.085 Y146.788 E57.65461
G1 X90.607 Y146.216 E57.93116
G1 X90.14 Y145.637 E58.20713
G1 X89.749 Y145.056 E58.46695
G1 X89.307 Y144.258 E58.80539
G1 X88.982 Y143.63 E59.06773
G1 X88.75 Y143.084 E59.28782
G1 X88.536 Y142.425 E59.54488
G1 X88.27 Y141.518 E59.89555
G1 X88.133 Y140.833 E60.15472
G1 X88.031 Y139.91 E60.49923
G1 X87.975 Y139.267 E60.73869
G1 X87.97 Y139.188 E60.76806
G1 X87.975 Y138.602 E60.98547
G1 X88.043 Y137.769 E61.29554
G1 X88.252 Y135.913 E61.98847
G1 X88.301 Y135.532 E62.13099
G1 X88.571 Y132.833 E63.13731
G1 X88.768 Y130.094 E64.15611
G1 X88.885 Y127.427 E65.14652
G1 X88.926 Y124.687 E66.16317
G1 X88.891 Y121.983 E67.16644
G1 X88.777 Y119.244 E68.18349
G1 X88.591 Y116.577 E69.17535
G1 X88.328 Y113.891 E70.17662
G1 X88.186 Y112.62 E70.65109
G1 X88.16 Y112.332 E70.75838
G1 X88.104 Y111.635 E71.0178
G1 X88.098 Y111.067 E71.22854
G1 X88.148 Y110.425 E71.46744
G1 X88.197 Y109.91 E71.65937
G1 X88.377 Y108.286 E72.26556
G1 X88.635 Y105.607 E73.26407
G1 X88.819 Y102.875 E74.27994
G1 X88.927 Y100.169 E75.28466
G1 X88.958 Y97.429 E76.30127
G1 X88.911 Y94.759 E77.29199
G1 X88.787 Y92.021 E78.30883
G1 X88.589 Y89.331 E79.30952
G1 X88.348 Y86.935 E80.20292
G1 X88.246 Y86.027 E80.54191
G1 X88.167 Y85.118 E80.88042
G1 X88.166 Y84.43 E81.13567
G1 X88.227 Y83.71 E81.40374
G1 X88.317 Y82.92 E81.69873
G1 X88.411 Y82.401 E81.89441
G1 X88.606 Y81.701 E82.164
G1 X88.877 Y80.837 E82.49994
G1 X89.135 Y80.208 E82.75217
G1 X89.493 Y79.512 E83.04254
G1 X89.865 Y78.846 E83.32556
G1 X90.231 Y78.301 E83.56912
G1 X90.672 Y77.748 E83.83153
G1 X91.169 Y77.16 E84.11716
G0 F5400 X91.703 Y77.613
G1 F1800 X92.08 Y77.229 E84.31681
G1 X92.22 Y77.104 E84.38644
G1 X92.711 Y76.694 E84.62376
G1 X93.252 Y76.262 E84.88061
G1 X93.723 Y75.947 E85.09083
G1 X94.407 Y75.571 E85.3804
G1 X95.022 Y75.252 E85.63744
G1 X95.546 Y75.034 E85.84799
G1 X96.376 Y74.771 E86.17101
G1 X96.977 Y74.599 E86.40294
G1 X97.582 Y74.481 E86.63162
G1 X98.114 Y74.42 E86.83029
G1 X98.985 Y74.344 E87.15465
G1 X99.555 Y74.343 E87.36612
G1 X100.321 Y74.407 E87.6513
G1 X101.216 Y74.507 E87.98541
G1 X103.988 Y74.783 E89.01891
G1 X106.721 Y74.976 E90.03538
G1 X109.427 Y75.089 E91.04018
G1 X112.173 Y75.128 E92.05905
G1 X114.915 Y75.09 E93.07643
G1 X117.624 Y74.974 E94.08239
G1 X121.718 Y74.655 E95.60586
G1 X122.223 Y74.606 E95.7941
G1 X122.94 Y74.546 E96.06104
G1 X123.505 Y74.546 E96.27065
G1 X124.27 Y74.613 E96.55555
G1 X124.954 Y74.69 E96.81092
G1 X125.521 Y74.804 E97.02549
G1 X126.313 Y75.037 E97.33177
G1 X126.921 Y75.23 E97.56843
G1 X127.445 Y75.447 E97.77884
G1 X128.163 Y75.819 E98.07885
G1 X128.733 Y76.131 E98.31993
G1 X129.212 Y76.449 E98.53323
G1 X129.806 Y76.922 E98.81494
G1 X130.368 Y77.396 E99.0877
G1 X130.837 Y77.873 E99.33588
G1 X131.22 Y78.327 E99.55624
G1 X131.714 Y78.947 E99.85035
G1 X132.022 Y79.41 E100.05666
G1 X132.41 Y80.115 E100.35521
G1 X132.697 Y80.681 E100.59065
G1 X132.887 Y81.137 E100.77392
G1 X133.159 Y81.958 E101.09479
G1 X133.196 Y82.077 E101.14103
G1 X133.36 Y82.641 E101.35894
G1 X133.473 Y83.209 E101.5738
G1 X133.558 Y83.995 E101.8671
G1 X133.615 Y84.674 E102.1199
G1 X133.613 Y85.29 E102.34843
G1 X133.565 Y85.879 E102.56768
G1 X133.375 Y88.616 E103.58555
G1 X133.264 Y91.322 E104.59032
G1 X133.229 Y94.069 E105.60954
G1 X133.271 Y96.812 E106.62731
G1 X133.392 Y99.554 E107.64558
G1 X133.587 Y102.254 E108.64989
G1 X133.864 Y105.003 E109.67494
G1 X134.142 Y107.194 E110.49431
G1 X134.341 Y108.636 E111.03437
G1 X134.398 Y109.147 E111.22512
G1 X134.444 Y109.602 E111.39479
G1 X134.502 Y110.273 E111.64466
G1 X134.502 Y110.844 E111.8565
G1 X134.434 Y111.639 E112.15252
G1 X134.406 Y111.928 E112.26024
G1 X134.314 Y112.715 E112.55421
G1 X134.256 Y113.117 E112.70489
G1 X133.923 Y115.226 E113.49703
G1 X133.576 Y117.913 E114.50218
G1 X133.301 Y120.645 E115.52087
G1 X133.107 Y123.348 E116.52627
G1 X132.987 Y126.09 E117.54452
G1 X132.946 Y128.827 E118.56006
G1 X132.982 Y131.578 E119.58077
G1 X133.094 Y134.289 E120.58741
G1 X133.327 Y137.345 E121.72448
G1 X133.327 Y137.506 E121.78421
G1 X133.427 Y138.684 E122.22282
G1 X133.412 Y139.516 E122.53154
G1 X133.362 Y140.063 E122.73532
G1 X133.269 Y140.862 E123.03375
G1 X133.145 Y141.459 E123.25997
G1 X132.881 Y142.366 E123.61043
G1 X132.546 Y143.292 E123.97577
G1 X132.31 Y143.772 E124.17421
G1 X132.099 Y144.169 E124.341
G1 X131.757 Y144.783 E124.60175
G1 X131.332 Y145.395 E124.87818
G1 X131.287 Y145.454 E124.90571
G1 X130.947 Y145.879 E125.10763
G1 X130.455 Y146.46 E125.39009
G1 X130.058 Y146.855 E125.59786
G1 X129.414 Y147.395 E125.90966
G1 X128.857 Y147.838 E126.1737
G1 X128.393 Y148.148 E126.38073
G1 X127.836 Y148.456 E126.61686
G1 X127.038 Y148.872 E126.95073
G1 X126.51 Y149.092 E127.16294
G1 X125.789 Y149.321 E127.4436
G1 X125.021 Y149.544 E127.7403
G1 X124.455 Y149.657 E127.95443
G1 X123.618 Y149.748 E128.26679
G1 X122.919 Y149.807 E128.52704
G1 X122.266 Y149.802 E128.76931
G1 X121.759 Y149.761 E128.95802
G1 X121.328 Y149.719 E129.11868
G1 X120.592 Y149.643 E129.39319
G1 X117.818 Y149.397 E130.42638
G1 X115.085 Y149.233 E131.44214
G1 X112.373 Y149.147 E132.4488
G1 X109.628 Y149.137 E133.4672
G1 X106.886 Y149.205 E134.4848
G1 X104.162 Y149.35 E135.49683
G1 X101.109 Y149.604 E136.63341
G1 X100.487 Y149.665 E136.86528
G1 X99.782 Y149.725 E137.12778
G1 X99.212 Y149.725 E137.33925
G1 X98.39 Y149.653 E137.64538
G1 X97.661 Y149.571 E137.91754
G1 X97.104 Y149.46 E138.12825
G1 X96.369 Y149.246 E138.41226
G1 X95.635 Y149.015 E138.69774
G1 X94.978 Y148.739 E138.96213
G1 X94.894 Y148.699 E138.99664
G1 X94.315 Y148.405 E139.23756
G1 X93.788 Y148.13 E139.45809
G1 X93.225 Y147.759 E139.70824
G1 X92.49 Y147.16 E140.06001
G1 X91.941 Y146.669 E140.33326
G1 X91.622 Y146.338 E140.50381
G1 X91.151 Y145.776 E140.77585
G1 X90.684 Y145.197 E141.05183
G1 X90.361 Y144.717 E141.26647
G1 X89.919 Y143.919 E141.60491
G1 X89.604 Y143.31 E141.85928
G1 X89.368 Y142.729 E142.09194
G1 X89.203 Y142.213 E142.29292
G1 X88.942 Y141.322 E142.63738
G1 X88.829 Y140.756 E142.85151
G1 X88.728 Y139.848 E143.19045
G1 X88.674 Y139.223 E143.42319
G1 X88.673 Y138.659 E143.63243
G1 X88.751 Y137.722 E143.98126
G1 X88.946 Y136.002 E144.62347
G1 X89 Y135.582 E144.78057
G1 X89.271 Y132.881 E145.78768
G1 X89.465 Y130.177 E146.79344
G1 X89.585 Y127.432 E147.81281
G1 X89.626 Y124.689 E148.83057
G1 X89.59 Y121.945 E149.84868
G1 X89.478 Y119.236 E150.85458
G1 X89.287 Y116.497 E151.87322
G1 X89.025 Y113.823 E152.87002
G1 X88.883 Y112.555 E153.34339
G1 X88.858 Y112.276 E153.44732
G1 X88.802 Y111.579 E153.70674
G1 X88.807 Y110.944 E153.94233
G1 X88.887 Y110.04 E154.27902
G1 X89.072 Y108.363 E154.90496
G1 X89.336 Y105.616 E155.9288
G1 X89.519 Y102.915 E156.93317
G1 X89.626 Y100.204 E157.93973
G1 X89.658 Y97.425 E158.97081
G1 X89.612 Y94.765 E159.95781
G1 X89.486 Y91.973 E160.9947
G1 X89.284 Y89.246 E162.00919
G1 X89.045 Y86.865 E162.89698
G1 X88.933 Y85.862 E163.27141
G1 X88.864 Y85.058 E163.57079
G1 X88.864 Y84.489 E163.78188
G1 X88.935 Y83.669 E164.08724
G1 X89.012 Y83 E164.33708
G1 X89.114 Y82.475 E164.5355
G1 X89.279 Y81.894 E164.75957
G1 X89.545 Y81.047 E165.08894
G1 X89.758 Y80.527 E165.29742
G1 X90.055 Y79.949 E165.53851
G1 X90.153 Y79.765 E165.61585
G1 X90.476 Y79.188 E165.86118
G1 X90.778 Y78.737 E166.06255
G1 X91.217 Y78.187 E166.32363
G1 X91.703 Y77.613 E166.60266
G0 F5400 X99.181 Y81.593
;TYPE:SUPPORT
G1 F1800 X99.413 Y81.73 E166.70262
G1 X99.313 Y81.765 E166.74193
G1 X99.184 Y81.648 E166.80654
G1 X99.181 Y81.593 E166.82697
G0 F5400 X120.548 Y84.384
G1 F1800 X120.73 Y83.856 E167.03417
G1 X120.973 Y83.386 E167.23047
G1 X121.292 Y83.023 E167.40975
G1 X121.715 Y82.676 E167.61274
G1 X122.18 Y82.429 E167.80808
G1 X122.649 Y82.278 E167.99087
G1 X123.208 Y82.231 E168.19899
G1 X123.748 Y82.279 E168.40012
G1 X124.309 Y82.467 E168.61963
G1 X124.726 Y82.696 E168.79613
G1 X125.151 Y83.034 E168.99759
G1 X125.463 Y83.417 E169.18086
G1 X125.74 Y83.956 E169.40569
G1 X125.873 Y84.398 E169.57694
G1 X125.929 Y85.017 E169.80753
G1 X125.875 Y85.483 E169.98157
G1 X125.711 Y86.017 E170.18881
G1 X125.462 Y86.476 E170.38255
G1 X125.119 Y86.89 E170.58201
G1 X124.713 Y87.214 E170.77472
G1 X124.254 Y87.455 E170.96705
G1 X123.693 Y87.619 E171.18389
G1 X123.223 Y87.668 E171.35921
G1 X122.569 Y87.591 E171.60352
G1 X122.18 Y87.473 E171.75433
G1 X121.653 Y87.179 E171.97822
G1 X121.271 Y86.859 E172.16309
G1 X120.925 Y86.428 E172.36815
G1 X120.699 Y85.985 E172.55265
G1 X120.537 Y85.465 E172.75472
G1 X120.488 Y84.968 E172.94
G1 X120.548 Y84.384 E173.1578
G0 F5400 X120.974 Y84.006
G1 F1800 X125.452 Y84.006 E174.81914
G0 F5400 X121.342 Y83.39
G1 F1800 X121.342 Y86.5 E175.97295
G10
G0 F5400 X109.997 Y112.115
G0 X109.359 Y114.962
G0 X108.48 Y116.582
G0 X107.521 Y117.706
G0 X98.693 Y137.642
G11
G1 F1800 X100.262 Y138.415 E176.62186
G1 X100.3 Y138.417 E176.63598
G1 X100.3 Y141.614 E177.82206
G1 X99.737 Y141.924 E178.06051
G1 X99.251 Y141.92 E178.24082
G1 X98.693 Y141.612 E178.47728
G1 X98.693 Y137.642 E179.95015
G0 F5400 X98.972 Y140.01
G1 F1800 X100.019 Y140.01 E180.33859
G10
;MESH:Index3.stl
G0 F5400 X96.643 Y140.01
G0 X96.557 Y143.33
G11
G0 X96.643 Y143.281
;TYPE:WALL-INNER
G1 F1800 X97.52 Y143.801 E180.71685
G1 X98.222 Y143.914 E180.98064
G1 X98.916 Y143.95 E181.23846
G1 X99.477 Y143.991 E181.44715
G1 X100.289 Y143.949 E181.7488
G1 X100.767 Y143.913 E181.92664
G1 X101.729 Y143.752 E182.28851
G1 X102.35 Y143.238 E182.58758
G1 X102.35 Y134.979 E185.65167
G1 X101.575 Y133.805 E186.17357
G1 X101.349 Y133.537 E186.30363
G1 X100.892 Y133.363 E186.48505
G1 X100.514 Y133.22 E186.63499
G1 X99.446 Y132.814 E187.05888
G1 X98.949 Y133.025 E187.2592
G1 X98.503 Y133.214 E187.43891
G1 X98.322 Y133.29 E187.51174
G1 X97.727 Y133.543 E187.75161
G1 X96.643 Y134.903 E188.39684
G1 X96.643 Y143.281 E191.50507
G0 F5400 X96.557 Y143.33
G0 X100.732 Y145.119
G0 X100.751 Y145.217
G1 F1800 X99.497 Y145.342 E191.97261
G1 X98.245 Y145.217 E192.43941
G1 X97.018 Y144.847 E192.91488
G1 X96.557 Y144.608 E193.10753
G1 X95.861 Y144.258 E193.39655
G1 X95.622 Y144.054 E193.51313
G1 X94.987 Y143.498 E193.82626
G1 X94.939 Y143.459 E193.84921
G1 X94.13 Y142.47 E194.32325
G1 X93.547 Y141.374 E194.78381
G1 X93.179 Y140.163 E195.25338
G1 X93.145 Y139.807 E195.38605
G1 X93.054 Y138.921 E195.71649
G1 X93.179 Y137.647 E196.19141
G1 X93.283 Y137.311 E196.3219
G1 X93.546 Y136.44 E196.65945
G1 X94.146 Y135.316 E197.13215
G1 X94.946 Y134.345 E197.59891
G1 X95.204 Y134.127 E197.72422
G1 X95.858 Y133.589 E198.03841
G1 X96.359 Y133.315 E198.25026
G1 X97.024 Y132.957 E198.53045
G1 X98.049 Y132.646 E198.92785
G1 X98.237 Y132.589 E198.99985
G1 X98.741 Y132.537 E199.16783
G1 X99.413 Y132.473 E199.33432
G1 X99.503 Y132.464 E199.36787
G1 X100.753 Y132.589 E199.7167
G1 X101.14 Y132.708 E199.86427
G1 X101.227 Y132.735 E199.89807
G1 X101.953 Y132.952 E200.17919
G1 X102.991 Y133.549 E200.62344
G1 X103.993 Y134.305 E201.08912
G1 X104.275 Y134.628 E201.2482
G1 X104.853 Y135.329 E201.58527
G1 X105.446 Y136.438 E202.05184
G1 X105.55 Y136.778 E202.18375
G1 X105.784 Y137.562 E202.48729
G1 X105.849 Y138.03 E202.66259
