;FLAVOR:UltiGCode
;TIME:2529
;MATERIAL:6586
;MATERIAL2:0
;NOZZLE_DIAMETER:0.8
;MINX:90.715
;MINY:78.402
;MINZ:0.53
;MAXX:132.431
;MAXY:145.589
;MAXZ:23.13
;Generated with Cura_SteamEngine 4.11.0
M82 ;absolute extrusion mode
G0 F3000 Y50 ;avoid prime blob
G92 E0
G92 E0
G10
;LAYER_COUNT:114
;LAYER:0
M107
G0 F5400 X93.621 Y81.59 Z0.53
;TYPE:SKIRT
G11
G1 F1800 X94.023 Y81.181 E0.21276
G1 X94.506 Y80.768 E0.44853
G1 X94.594 Y80.695 E0.49095
G1 X95.075 Y80.311 E0.7193
G1 X95.649 Y79.928 E0.9753
G1 X96.323 Y79.558 E1.26056
G1 X96.806 Y79.308 E1.46233
G1 X97.431 Y79.049 E1.71333
G1 X98.168 Y78.814 E2.00032
G1 X98.708 Y78.66 E2.20865
G1 X99.268 Y78.543 E2.42089
G1 X99.819 Y78.476 E2.62682
G1 X100.656 Y78.402 E2.93856
G1 X101.349 Y78.402 E3.19566
G1 X102.122 Y78.468 E3.48349
G1 X102.619 Y78.51 E3.66853
G1 X103.96 Y78.644 E4.16852
G1 X106.698 Y78.841 E5.18694
G1 X109.364 Y78.958 E6.17698
G1 X112.105 Y78.999 E7.19401
G1 X114.809 Y78.964 E8.19727
G1 X117.544 Y78.851 E9.21282
G1 X120.4 Y78.65 E10.27502
G1 X121.223 Y78.58 E10.58146
G1 X121.913 Y78.58 E10.83745
G1 X122.614 Y78.641 E11.0985
G1 X123.206 Y78.709 E11.31958
G1 X123.874 Y78.844 E11.57241
G1 X124.544 Y79.04 E11.8314
G1 X125.105 Y79.218 E12.04976
G1 X125.735 Y79.478 E12.30261
G1 X126.341 Y79.792 E12.55583
G1 X126.861 Y80.076 E12.77564
G1 X127.441 Y80.461 E13.03391
G1 X128.068 Y80.961 E13.33144
G1 X128.469 Y81.3 E13.52625
G1 X128.89 Y81.712 E13.74479
G1 X129.31 Y82.204 E13.98478
G1 X129.772 Y82.782 E14.25931
G1 X130.151 Y83.348 E14.51202
G1 X130.455 Y83.898 E14.74517
G1 X130.529 Y84.04 E14.80457
G1 X130.762 Y84.504 E14.9972
G1 X130.986 Y85.042 E15.21341
G1 X131.229 Y85.772 E15.49885
G1 X131.41 Y86.387 E15.73669
G1 X131.542 Y87.055 E15.98931
G1 X131.619 Y87.747 E16.24763
G1 X131.669 Y88.344 E16.46989
G1 X131.676 Y88.913 E16.681
G1 X131.603 Y90.19 E17.15555
G1 X131.573 Y90.616 E17.31398
G1 X131.461 Y93.29 E18.30691
G1 X131.422 Y96.035 E19.3254
G1 X131.461 Y98.771 E20.34056
G1 X131.575 Y101.442 E21.33241
G1 X131.769 Y104.175 E22.3489
G1 X132.038 Y106.882 E23.35814
G1 X132.267 Y108.706 E24.04016
G1 X132.369 Y109.633 E24.38615
G1 X132.43 Y110.339 E24.64906
G1 X132.431 Y111.029 E24.90505
G1 X132.365 Y111.809 E25.19546
G1 X132.353 Y111.93 E25.24057
G1 X132.276 Y112.6 E25.49078
G1 X132.178 Y113.292 E25.75007
G1 X131.821 Y116.047 E26.78072
G1 X131.548 Y118.768 E27.79528
G1 X131.355 Y121.434 E28.78695
G1 X131.236 Y124.138 E29.79111
G1 X131.194 Y126.866 E30.80332
G1 X131.228 Y129.583 E31.8114
G1 X131.34 Y132.313 E32.82509
G1 X131.5 Y134.594 E33.67342
G1 X131.518 Y134.913 E33.79195
G1 X131.51 Y135.474 E34.00011
G1 X131.466 Y136.007 E34.19852
G1 X131.452 Y136.152 E34.25257
G1 X131.366 Y136.876 E34.52306
G1 X131.269 Y137.399 E34.7204
G1 X131.218 Y137.593 E34.79482
G1 X131.034 Y138.225 E35.03903
G1 X130.859 Y138.776 E35.25351
G1 X130.637 Y139.329 E35.47459
G1 X130.367 Y139.874 E35.70024
G1 X130.265 Y140.066 E35.7809
G1 X129.924 Y140.677 E36.04049
G1 X129.614 Y141.151 E36.25061
G1 X129.144 Y141.747 E36.53221
G1 X129.082 Y141.823 E36.5686
G1 X128.69 Y142.287 E36.79395
G1 X128.208 Y142.768 E37.04658
G1 X127.677 Y143.214 E37.30385
G1 X127.142 Y143.64 E37.55758
G1 X126.703 Y143.945 E37.7559
G1 X126.531 Y144.045 E37.82971
G1 X125.959 Y144.359 E38.07179
G1 X125.381 Y144.657 E38.31305
G1 X124.735 Y144.924 E38.57238
G1 X124.189 Y145.098 E38.78499
G1 X123.428 Y145.318 E39.07888
G1 X122.912 Y145.43 E39.27477
G1 X122.721 Y145.456 E39.34629
G1 X122.029 Y145.532 E39.60456
G1 X121.392 Y145.584 E39.84168
G1 X120.803 Y145.589 E40.0602
G1 X120.192 Y145.541 E40.28758
G1 X119.974 Y145.52 E40.36883
G1 X117.255 Y145.297 E41.38097
G1 X114.556 Y145.153 E42.38372
G1 X111.815 Y145.083 E43.40097
G1 X109.109 Y145.092 E44.4049
G1 X106.402 Y145.176 E45.40968
G1 X102.536 Y145.43 E46.84706
G1 X101.532 Y145.516 E47.2209
G1 X100.839 Y145.516 E47.47801
G1 X100.223 Y145.463 E47.70739
G1 X99.572 Y145.392 E47.95034
G1 X98.87 Y145.258 E48.21549
G1 X98.042 Y145.022 E48.53491
G1 X97.488 Y144.847 E48.75045
G1 X96.831 Y144.577 E49.01398
G1 X96.325 Y144.322 E49.2242
G1 X95.738 Y144.016 E49.46979
G1 X95.048 Y143.562 E49.77622
G1 X94.42 Y143.049 E50.07706
G1 X93.922 Y142.607 E50.3241
G1 X93.524 Y142.196 E50.53635
G1 X93.05 Y141.629 E50.81053
G1 X92.713 Y141.211 E51.00973
G1 X92.325 Y140.635 E51.26739
G1 X91.864 Y139.805 E51.61963
G1 X91.649 Y139.385 E51.79468
G1 X91.414 Y138.815 E52.02342
G1 X91.15 Y137.998 E52.34196
G1 X91.005 Y137.508 E52.53154
G1 X90.865 Y136.818 E52.79274
G1 X90.751 Y135.819 E53.16578
G1 X90.718 Y135.455 E53.30138
G1 X90.715 Y134.775 E53.55366
G1 X90.776 Y134.016 E53.83616
G1 X90.83 Y133.521 E54.02089
G1 X91.096 Y130.836 E55.0219
G1 X91.289 Y128.101 E56.03911
G1 X91.401 Y125.434 E57.02944
G1 X91.44 Y122.691 E58.0472
G1 X91.401 Y119.954 E59.06273
G1 X91.287 Y117.282 E60.05494
G1 X91.094 Y114.552 E61.0703
G1 X90.954 Y113.145 E61.59487
G1 X90.886 Y112.402 E61.87168
G1 X90.826 Y111.664 E62.14638
G1 X90.821 Y111.083 E62.36194
G1 X90.872 Y110.438 E62.60198
G1 X91.151 Y107.512 E63.69245
G1 X91.334 Y104.809 E64.69756
G1 X91.441 Y102.105 E65.70153
G1 X91.472 Y99.362 E66.71924
G1 X91.425 Y96.694 E67.70923
G1 X91.301 Y93.973 E68.71977
G1 X90.975 Y89.931 E70.22422
G1 X90.937 Y89.556 E70.36405
G1 X90.88 Y88.87 E70.61944
G1 X90.873 Y88.295 E70.83278
G1 X90.927 Y87.622 E71.08326
G1 X91.012 Y86.872 E71.36329
G1 X91.103 Y86.366 E71.55403
G1 X91.295 Y85.678 E71.81903
G1 X91.518 Y84.97 E72.09442
G1 X91.775 Y84.346 E72.34479
G1 X92.052 Y83.806 E72.56995
G1 X92.119 Y83.681 E72.62257
G1 X92.404 Y83.17 E72.83964
G1 X92.723 Y82.684 E73.05532
G1 X93.115 Y82.188 E73.28987
G1 X93.194 Y82.092 E73.33599
G1 X93.621 Y81.59 E73.5805
G0 F5400 X94.154 Y82.043
G1 F1800 X94.564 Y81.636 E73.79483
G1 X94.958 Y81.302 E73.98646
G1 X95.512 Y80.858 E74.24985
G1 X95.986 Y80.541 E74.46141
G1 X96.569 Y80.22 E74.70832
G1 X97.128 Y79.93 E74.94196
G1 X97.645 Y79.715 E75.14969
G1 X98.36 Y79.487 E75.42811
G1 X98.9 Y79.333 E75.63644
G1 X99.516 Y79.215 E75.86913
G1 X99.979 Y79.164 E76.04194
G1 X100.717 Y79.1 E76.31677
G1 X101.29 Y79.099 E76.52935
G1 X102.053 Y79.164 E76.81345
G1 X102.549 Y79.207 E76.99816
G1 X103.91 Y79.343 E77.5056
G1 X106.617 Y79.538 E78.5125
G1 X109.359 Y79.658 E79.53076
G1 X112.103 Y79.699 E80.5489
G1 X114.846 Y79.663 E81.56664
G1 X117.553 Y79.551 E82.57179
G1 X120.44 Y79.349 E83.64549
G1 X121.282 Y79.277 E83.95901
G1 X121.854 Y79.277 E84.17122
G1 X122.438 Y79.327 E84.38868
G1 X123.126 Y79.405 E84.64556
G1 X123.678 Y79.516 E84.85445
G1 X124.332 Y79.707 E85.10722
G1 X124.893 Y79.885 E85.32558
G1 X125.415 Y80.1 E85.53503
G1 X126.006 Y80.406 E85.78193
G1 X126.526 Y80.69 E86.00175
G1 X127.006 Y81.008 E86.21537
G1 X127.539 Y81.432 E86.46804
G1 X128.017 Y81.835 E86.7
G1 X128.433 Y82.252 E86.91853
G1 X128.775 Y82.656 E87.1149
G1 X129.225 Y83.218 E87.38201
G1 X129.538 Y83.686 E87.59089
G1 X129.842 Y84.236 E87.82404
G1 X129.904 Y84.354 E87.87349
G1 X130.137 Y84.818 E88.06612
G1 X130.322 Y85.263 E88.24491
G1 X130.565 Y85.993 E88.53035
G1 X130.737 Y86.581 E88.75764
G1 X130.847 Y87.133 E88.96646
G1 X130.912 Y87.709 E89.18151
G1 X130.971 Y88.402 E89.43955
G1 X130.978 Y88.873 E89.61431
G1 X130.905 Y90.142 E90.08588
G1 X130.875 Y90.575 E90.24691
G1 X130.761 Y93.287 E91.25395
G1 X130.722 Y96.035 E92.27356
G1 X130.76 Y98.776 E93.29057
G1 X130.876 Y101.487 E94.29727
G1 X131.07 Y104.221 E95.31414
G1 X131.343 Y106.961 E96.33571
G1 X131.572 Y108.783 E97.01699
G1 X131.672 Y109.694 E97.357
G1 X131.733 Y110.4 E97.6199
G1 X131.733 Y110.97 E97.83137
G1 X131.657 Y111.85 E98.15907
G1 X131.568 Y112.614 E98.44443
G1 X131.477 Y113.248 E98.68205
G1 X131.126 Y115.957 E99.69549
G1 X130.853 Y118.682 E100.71153
G1 X130.657 Y121.39 E101.71883
G1 X130.536 Y124.131 E102.73673
G1 X130.494 Y126.866 E103.75153
G1 X130.529 Y129.621 E104.77372
G1 X130.639 Y132.321 E105.77625
G1 X130.801 Y134.633 E106.63611
G1 X130.813 Y135.417 E106.927
G1 X130.769 Y135.95 E107.12542
G1 X130.757 Y136.069 E107.16979
G1 X130.671 Y136.793 E107.44028
G1 X130.545 Y137.397 E107.66919
G1 X130.336 Y138.112 E107.94556
G1 X130.008 Y139.02 E108.30373
G1 X129.748 Y139.548 E108.52208
G1 X129.653 Y139.725 E108.59661
G1 X129.312 Y140.336 E108.8562
G1 X128.924 Y140.902 E109.11079
G1 X128.599 Y141.308 E109.30373
G1 X128.155 Y141.835 E109.55939
G1 X127.757 Y142.233 E109.76821
G1 X127.241 Y142.667 E110.01836
G1 X126.706 Y143.093 E110.27208
G1 X126.193 Y143.432 E110.5002
G1 X125.638 Y143.737 E110.73515
G1 X125.06 Y144.035 E110.97641
G1 X124.522 Y144.257 E111.19234
G1 X123.883 Y144.459 E111.44097
G1 X123.235 Y144.645 E111.69108
G1 X122.644 Y144.76 E111.91446
G1 X121.972 Y144.834 E112.16528
G1 X121.335 Y144.886 E112.40239
G1 X120.723 Y144.882 E112.62945
G1 X120.205 Y144.84 E112.82225
G1 X120.028 Y144.823 E112.88822
G1 X117.279 Y144.598 E113.91151
G1 X114.574 Y144.453 E114.91651
G1 X111.831 Y144.383 E115.93449
G1 X109.085 Y144.392 E116.95326
G1 X106.394 Y144.476 E117.95211
G1 X102.477 Y144.733 E119.40844
G1 X101.472 Y144.819 E119.78266
G1 X100.899 Y144.819 E119.99524
G1 X100.283 Y144.766 E120.22462
G1 X99.642 Y144.696 E120.46385
G1 X99.062 Y144.585 E120.68293
G1 X98.234 Y144.349 E121.00236
G1 X97.701 Y144.18 E121.2098
G1 X97.146 Y143.952 E121.4324
G1 X96.648 Y143.702 E121.63914
G1 X96.061 Y143.396 E121.88473
G1 X95.491 Y143.019 E122.13827
G1 X94.863 Y142.506 E122.43911
G1 X94.389 Y142.086 E122.67407
G1 X94.061 Y141.746 E122.84934
G1 X93.595 Y141.19 E123.11848
G1 X93.258 Y140.772 E123.31768
G1 X92.937 Y140.296 E123.53068
G1 X92.476 Y139.466 E123.88292
G1 X92.274 Y139.07 E124.04785
G1 X92.08 Y138.598 E124.23717
G1 X91.822 Y137.8 E124.54832
G1 X91.677 Y137.31 E124.7379
G1 X91.561 Y136.739 E124.95407
G1 X91.438 Y135.654 E125.35918
G1 X91.415 Y135.393 E125.45639
G1 X91.413 Y134.831 E125.66489
G1 X91.474 Y134.072 E125.94739
G1 X91.52 Y133.651 E126.10451
G1 X91.794 Y130.884 E127.13609
G1 X91.988 Y128.144 E128.15517
G1 X92.101 Y125.437 E129.16034
G1 X92.14 Y122.691 E130.17921
G1 X92.102 Y119.949 E131.19659
G1 X91.986 Y117.239 E132.20292
G1 X91.792 Y114.504 E133.22016
G1 X91.651 Y113.081 E133.75068
G1 X91.584 Y112.345 E134.02486
G1 X91.524 Y111.607 E134.29956
G1 X91.529 Y110.983 E134.53107
G1 X91.572 Y110.464 E134.72428
G1 X91.851 Y107.556 E135.80811
G1 X92.034 Y104.847 E136.81543
G1 X92.14 Y102.141 E137.82013
G1 X92.172 Y99.358 E138.85269
G1 X92.126 Y96.698 E139.8397
G1 X91.999 Y93.912 E140.87438
G1 X91.679 Y89.943 E142.35166
G1 X91.635 Y89.498 E142.51756
G1 X91.578 Y88.812 E142.77294
G1 X91.578 Y88.235 E142.98701
G1 X91.624 Y87.682 E143.19288
G1 X91.707 Y86.953 E143.46508
G1 X91.803 Y86.453 E143.65397
G1 X91.968 Y85.872 E143.87805
G1 X92.186 Y85.182 E144.14651
G1 X92.398 Y84.665 E144.35382
G1 X92.675 Y84.125 E144.57898
G1 X92.73 Y84.022 E144.6223
G1 X93.015 Y83.511 E144.83937
G1 X93.347 Y83.02 E145.05927
G1 X93.727 Y82.545 E145.28494
G1 X94.154 Y82.043 E145.52945
G10
G0 F5400 X101.063 Y81.596
G0 X103.709 Y82.144
G0 X105.948 Y83.668
G0 X107.032 Y85.181
G0 X119.31 Y88.174
;TYPE:SUPPORT
G11
G1 F1800 X119.421 Y87.83 E145.66355
G1 X119.664 Y87.375 E145.85492
G1 X119.937 Y87.051 E146.01211
G1 X120.294 Y86.758 E146.18345
G1 X120.68 Y86.547 E146.34665
G1 X121.115 Y86.417 E146.51509
G1 X121.558 Y86.378 E146.68008
G1 X122.051 Y86.427 E146.86389
G1 X122.446 Y86.553 E147.01771
G1 X122.869 Y86.789 E147.19741
G1 X123.189 Y87.043 E147.34898
G1 X123.49 Y87.407 E147.52422
G1 X123.705 Y87.827 E147.69927
G1 X123.825 Y88.227 E147.8542
G1 X123.871 Y88.736 E148.04381
G1 X123.823 Y89.133 E148.19217
G1 X123.684 Y89.602 E148.37365
G1 X123.485 Y89.967 E148.52788
G1 X123.174 Y90.342 E148.70863
G1 X122.79 Y90.638 E148.88851
G1 X122.463 Y90.817 E149.02681
G1 X122.032 Y90.944 E149.19351
G1 X121.499 Y90.989 E149.39195
G1 X121.1 Y90.948 E149.54076
G1 X120.689 Y90.822 E149.70025
G1 X120.277 Y90.605 E149.87301
G1 X119.932 Y90.319 E150.03926
G1 X119.622 Y89.934 E150.22264
G1 X119.439 Y89.576 E150.37181
G1 X119.295 Y89.113 E150.5517
G1 X119.251 Y88.688 E150.71022
G1 X119.31 Y88.174 E150.90216
G0 F5400 X119.536 Y88.673
G1 F1800 X123.584 Y88.673 E152.40397
G0 F5400 X121.342 Y86.678
G1 F1800 X121.342 Y90.691 E153.89279
G10
G0 F5400 X114.395 Y106.02
G0 X113.477 Y107.63
G0 X101.735 Y133.962
G11
G1 F1800 X101.735 Y136.806 E154.94792
G1 X101.253 Y136.755 E155.12774
G1 X100.635 Y136.817 E155.35817
G1 X100.635 Y133.957 E156.41923
G1 X101.427 Y134.005 E156.7136
G1 X101.735 Y133.962 E156.82897
G0 F5400 X101.454 Y135.343
G1 F1800 X100.914 Y135.343 E157.02931
G10
;MESH:Auriculaire3.stl
G0 F5400 X98.565 Y135.343
G0 X98.498 Y138.951
G11
G0 X98.585 Y138.902
;TYPE:WALL-INNER
G1 F1800 X99.301 Y139.332 E157.33917
G1 X99.426 Y139.407 E157.39325
G1 X99.581 Y139.431 E157.45144
G1 X100.075 Y139.51 E157.63705
G1 X100.66 Y139.54 E157.85437
G1 X101.166 Y139.579 E158.04265
G1 X101.88 Y139.542 E158.3079
G1 X102.295 Y139.509 E158.46235
G1 X102.868 Y139.413 E158.6779
G1 X103.131 Y139.37 E158.77677
G1 X103.164 Y139.364 E158.78921
G1 X103.3 Y139.252 E158.85457
G1 X103.466 Y139.114 E158.93466
G1 X103.785 Y138.85 E159.08828
G1 X103.785 Y131.628 E161.76764
G1 X103.309 Y130.907 E162.08817
G1 X103.091 Y130.577 E162.2349
G1 X102.901 Y130.352 E162.34416
G1 X102.865 Y130.309 E162.36496
G1 X102.135 Y130.032 E162.65464
G1 X101.188 Y129.672 E163.0305
G1 X101.167 Y129.664 E163.03884
G1 X101.192 Y129.661 E163.03966
G1 X102.235 Y129.766 E163.12937
G1 X102.962 Y129.986 E163.25219
G1 X103.236 Y130.069 E163.32146
G1 X103.346 Y130.132 E163.3436
G1 X103.689 Y130.329 E163.47116
G1 X104.101 Y130.566 E163.6475
G1 X104.997 Y131.243 E164.06414
G1 X105.666 Y132.058 E164.45532
G1 X106.162 Y132.987 E164.84603
G1 X106.469 Y133.997 E165.23767
G1 X106.571 Y135.052 E165.6309
G1 X106.471 Y136.093 E166.01889
G1 X106.157 Y137.123 E166.41838
G1 X105.649 Y138.066 E166.81577
G1 X105.013 Y138.841 E167.18772
G1 X104.705 Y139.071 E167.33033
G1 X104.213 Y139.474 E167.56628
G1 X103.911 Y139.655 E167.6969
G1 X103.726 Y139.766 E167.77506
G1 X103.457 Y139.91 E167.88102
G1 X103.241 Y140.026 E167.96772
G1 X102.986 Y140.103 E168.06408
G1 X102.235 Y140.332 E168.35536
G1 X101.186 Y140.436 E168.74645
G1 X100.13 Y140.331 E169.14016
G1 X99.662 Y140.187 E169.32182
G1 X99.381 Y140.103 E169.43063
G1 X99.231 Y140.058 E169.48786
G1 X99.107 Y140.02 E169.53546
G1 X98.978 Y139.953 E169.58904
G1 X98.676 Y139.796 E169.71532
G1 X98.143 Y139.528 E169.93665
G1 X97.896 Y139.318 E170.05693
G1 X97.395 Y138.879 E170.30406
G1 X97.372 Y138.861 E170.3149
G1 X96.691 Y138.027 E170.71436
G1 X96.202 Y137.104 E171.10188
G1 X95.899 Y136.103 E171.4899
G1 X95.866 Y135.747 E171.62254
G1 X95.794 Y135.066 E171.8766
G1 X95.899 Y134.001 E172.27363
G1 X96.206 Y132.989 E172.66598
G1 X96.708 Y132.049 E173.06133
G1 X97.376 Y131.237 E173.45142
G1 X97.639 Y131.015 E173.57911
G1 X98.154 Y130.59 E173.82683
G1 X98.705 Y130.295 E174.05871
G1 X99.121 Y130.072 E174.23382
G1 X99.468 Y129.969 E174.36811
G1 X99.574 Y129.937 E174.40919
G1 X100.13 Y129.766 E174.625
G1 X101.096 Y129.671 E174.98511
G1 X100.243 Y130.032 E175.05266
G1 X99.711 Y130.258 E175.15372
G1 X99.572 Y130.317 E175.17514
G1 X99.517 Y130.386 E175.17699
G1 X99.223 Y130.756 E175.32839
G1 X98.585 Y131.556 E175.70802
G1 X98.585 Y138.902 E178.43339
G0 F5400 X99.235 Y138.534
;TYPE:WALL-OUTER
G1 F1800 X99.653 Y138.785 E178.61427
G1 X100.143 Y138.863 E178.79835
G1 X100.705 Y138.892 E179.00713
G1 X101.174 Y138.928 E179.18164
G1 X101.837 Y138.893 E179.42796
G1 X102.216 Y138.863 E179.56901
G1 X102.884 Y138.752 E179.82023
G1 X103.135 Y138.544 E179.94117
G1 X103.135 Y131.823 E182.43466
G1 X102.57 Y130.967 E182.81518
G1 X102.477 Y130.857 E182.86862
G1 X101.151 Y130.353 E183.39491
