;FLAVOR:UltiGCode
;TIME:4156
;MATERIAL:12337
;MATERIAL2:0
;NOZZLE_DIAMETER:0.8
;MINX:86.563
;MINY:71.204
;MINZ:0.53
;MAXX:136.62
;MAXY:153.037
;MAXZ:28.93
;Generated with Cura_SteamEngine 4.11.0
M82 ;absolute extrusion mode
G0 F3000 Y50 ;avoid prime blob
G92 E0
G92 E0
G10
;LAYER_COUNT:143
;LAYER:0
M107
G0 F5400 X89.515 Y75.35 Z0.53
;TYPE:SKIRT
G11
G1 F1800 X89.956 Y74.834 E0.25183
G1 X90.365 Y74.42 E0.46773
G1 X90.87 Y73.989 E0.71405
G1 X91.078 Y73.818 E0.81394
G1 X91.637 Y73.37 E1.07972
G1 X92.211 Y72.985 E1.33614
G1 X92.972 Y72.566 E1.65843
G1 X93.626 Y72.227 E1.93173
G1 X94.256 Y71.965 E2.18486
G1 X95.019 Y71.721 E2.48206
G1 X95.807 Y71.494 E2.7863
G1 X96.388 Y71.373 E3.00647
G1 X96.651 Y71.339 E3.10486
G1 X97.245 Y71.275 E3.32651
G1 X98.052 Y71.205 E3.62703
G1 X98.736 Y71.204 E3.88079
G1 X99.454 Y71.264 E4.1481
G1 X99.651 Y71.284 E4.22156
G1 X101.38 Y71.48 E4.86713
G1 X104.083 Y71.747 E5.87482
G1 X106.824 Y71.94 E6.89425
G1 X109.488 Y72.051 E7.88345
G1 X112.231 Y72.089 E8.9012
G1 X114.967 Y72.05 E9.91636
G1 X117.64 Y71.934 E10.90898
G1 X120.38 Y71.739 E11.92809
G1 X122.187 Y71.559 E12.6018
G1 X123.029 Y71.479 E12.91559
G1 X123.699 Y71.421 E13.16509
G1 X124.393 Y71.421 E13.42257
G1 X125.166 Y71.487 E13.71039
G1 X125.996 Y71.581 E14.02029
G1 X126.666 Y71.716 E14.27386
G1 X127.459 Y71.948 E14.58039
G1 X128.156 Y72.168 E14.85155
G1 X128.798 Y72.433 E15.10923
G1 X129.638 Y72.869 E15.46035
G1 X130.206 Y73.18 E15.7006
G1 X130.789 Y73.568 E15.96041
G1 X131.512 Y74.147 E16.30406
G1 X132.032 Y74.588 E16.55701
G1 X132.425 Y74.971 E16.7606
G1 X132.566 Y75.131 E16.83972
G1 X133.049 Y75.707 E17.11861
G1 X133.516 Y76.289 E17.39545
G1 X133.9 Y76.862 E17.65135
G1 X134.243 Y77.483 E17.91455
G1 X134.395 Y77.772 E18.03569
G1 X134.651 Y78.282 E18.2474
G1 X134.875 Y78.824 E18.46498
G1 X135.146 Y79.641 E18.78433
G1 X135.191 Y79.787 E18.84101
G1 X135.378 Y80.431 E19.0898
G1 X135.514 Y81.113 E19.34781
G1 X135.613 Y82.013 E19.68372
G1 X135.67 Y82.691 E19.93614
G1 X135.67 Y83.365 E20.1862
G1 X135.566 Y84.613 E20.65081
G1 X135.563 Y84.754 E20.70313
G1 X135.455 Y85.997 E21.16602
G1 X135.297 Y88.696 E22.16907
G1 X135.216 Y91.4 E23.1727
G1 X135.211 Y94.106 E24.17663
G1 X135.284 Y96.846 E25.19353
G1 X135.431 Y99.544 E26.19597
G1 X135.656 Y102.243 E27.20078
G1 X135.958 Y104.945 E28.20946
G1 X136.225 Y106.77 E28.89374
G1 X136.441 Y108.335 E29.47986
G1 X136.491 Y108.777 E29.64489
G1 X136.561 Y109.466 E29.90182
G1 X136.62 Y110.146 E30.15505
G1 X136.62 Y110.842 E30.41327
G1 X136.547 Y111.696 E30.73126
G1 X136.504 Y112.113 E30.88678
G1 X136.43 Y112.752 E31.12544
G1 X136.397 Y112.981 E31.21127
G1 X136.299 Y113.544 E31.42329
G1 X135.875 Y116.222 E32.4292
G1 X135.523 Y118.923 E33.43975
G1 X135.251 Y121.612 E34.44246
G1 X135.055 Y124.307 E35.44494
G1 X134.934 Y127.045 E36.46173
G1 X134.89 Y129.718 E37.45355
G1 X134.924 Y132.458 E38.47017
G1 X135.035 Y135.193 E39.48569
G1 X135.221 Y137.896 E40.49087
G1 X135.353 Y139.348 E41.03179
G1 X135.417 Y139.998 E41.2741
G1 X135.472 Y140.661 E41.52092
G1 X135.48 Y141.223 E41.72944
G1 X135.434 Y141.818 E41.95085
G1 X135.383 Y142.309 E42.13399
G1 X135.297 Y143.037 E42.40595
G1 X135.166 Y143.685 E42.65122
G1 X134.864 Y144.727 E43.05372
G1 X134.699 Y145.242 E43.25435
G1 X134.476 Y145.794 E43.47522
G1 X134.065 Y146.594 E43.8089
G1 X133.934 Y146.844 E43.91361
G1 X133.617 Y147.413 E44.15526
G1 X133.307 Y147.888 E44.36569
G1 X133.116 Y148.138 E44.48241
G1 X132.657 Y148.71 E44.7545
G1 X132.192 Y149.26 E45.02171
G1 X131.832 Y149.635 E45.21456
G1 X131.652 Y149.795 E45.30391
G1 X131.188 Y150.185 E45.52879
G1 X130.952 Y150.378 E45.64189
G1 X130.394 Y150.822 E45.90645
G1 X129.816 Y151.206 E46.1639
G1 X129.086 Y151.605 E46.47254
G1 X128.377 Y151.974 E46.76907
G1 X127.738 Y152.239 E47.02572
G1 X126.923 Y152.499 E47.3431
G1 X126.804 Y152.535 E47.38923
G1 X126.093 Y152.738 E47.66355
G1 X125.42 Y152.87 E47.91799
G1 X124.492 Y152.97 E48.26427
G1 X123.772 Y153.03 E48.53231
G1 X123.203 Y153.037 E48.74343
G1 X122.542 Y152.987 E48.98936
G1 X121.967 Y152.932 E49.20366
G1 X120.944 Y152.827 E49.58519
G1 X119.645 Y152.688 E50.06987
G1 X116.943 Y152.471 E51.07554
G1 X114.208 Y152.328 E52.09161
G1 X111.502 Y152.264 E53.09581
G1 X108.795 Y152.277 E54.10012
G1 X106.06 Y152.366 E55.11534
G1 X103.406 Y152.528 E56.10181
G1 X99.992 Y152.846 E57.37389
G1 X99.757 Y152.871 E57.46156
G1 X99.006 Y152.937 E57.74126
G1 X98.31 Y152.939 E57.99948
G1 X97.54 Y152.874 E58.28616
G1 X96.687 Y152.782 E58.60446
G1 X95.995 Y152.649 E58.86589
G1 X95.08 Y152.388 E59.2189
G1 X94.344 Y152.157 E59.50509
G1 X93.752 Y151.92 E59.74166
G1 X93.608 Y151.851 E59.80091
G1 X92.904 Y151.496 E60.09342
G1 X92.28 Y151.17 E60.35461
G1 X91.593 Y150.717 E60.65991
G1 X90.966 Y150.205 E60.96023
G1 X90.837 Y150.095 E61.02313
G1 X90.27 Y149.591 E61.30457
G1 X89.861 Y149.171 E61.52207
G1 X89.258 Y148.454 E61.86964
G1 X88.813 Y147.9 E62.13327
G1 X88.426 Y147.324 E62.39072
G1 X87.974 Y146.507 E62.73713
G1 X87.621 Y145.821 E63.02335
G1 X87.389 Y145.255 E63.25029
G1 X87.087 Y144.327 E63.61235
G1 X87.047 Y144.197 E63.66281
G1 X86.869 Y143.58 E63.90106
G1 X86.734 Y142.897 E64.15935
G1 X86.623 Y141.873 E64.54148
G1 X86.569 Y141.252 E64.77274
G1 X86.563 Y141.157 E64.80806
G1 X86.569 Y140.569 E65.02622
G1 X86.639 Y139.719 E65.34263
G1 X86.659 Y139.526 E65.41462
G1 X86.772 Y138.521 E65.78982
G1 X87.041 Y136.403 E66.58191
G1 X87.309 Y133.678 E67.59777
G1 X87.497 Y131.007 E68.59116
G1 X87.61 Y128.275 E69.6056
G1 X87.646 Y125.562 E70.61221
G1 X87.606 Y122.831 E71.62552
G1 X87.489 Y120.158 E72.61815
G1 X87.292 Y117.404 E73.6425
G1 X87.053 Y114.983 E74.54505
G1 X86.796 Y112.674 E75.40698
G1 X86.762 Y112.315 E75.54077
G1 X86.706 Y111.625 E75.7976
G1 X86.7 Y111.061 E76.00686
G1 X86.749 Y110.429 E76.24203
G1 X86.809 Y109.795 E76.4783
G1 X87.004 Y108.034 E77.13562
G1 X87.094 Y107.318 E77.40335
G1 X87.349 Y104.663 E78.39288
G1 X87.536 Y101.922 E79.41216
G1 X87.643 Y99.221 E80.41502
G1 X87.675 Y96.479 E81.43237
G1 X87.629 Y93.81 E82.42271
G1 X87.505 Y91.073 E83.43918
G1 X87.306 Y88.371 E84.44434
G1 X87.03 Y85.667 E85.45274
G1 X87.014 Y85.541 E85.49986
G1 X86.859 Y84.152 E86.01837
G1 X86.831 Y83.871 E86.12314
G1 X86.773 Y83.159 E86.38817
G1 X86.766 Y82.609 E86.59224
G1 X86.777 Y82.434 E86.65729
G1 X86.83 Y81.815 E86.88778
G1 X86.852 Y81.597 E86.96907
G1 X86.934 Y80.882 E87.23607
G1 X87.064 Y80.229 E87.48309
G1 X87.23 Y79.649 E87.70691
G1 X87.522 Y78.718 E88.0689
G1 X87.733 Y78.183 E88.28226
G1 X87.836 Y77.973 E88.36904
G1 X88.198 Y77.276 E88.66042
G1 X88.557 Y76.634 E88.93331
G1 X88.867 Y76.162 E89.14282
G1 X89.228 Y75.701 E89.36005
G1 X89.515 Y75.35 E89.52826
G0 F5400 X89.996 Y75.867
G1 F1800 X90.488 Y75.289 E89.80986
G1 X90.973 Y74.818 E90.06068
G1 X91.488 Y74.387 E90.30983
G1 X92.075 Y73.916 E90.58905
G1 X92.55 Y73.598 E90.80112
G1 X93.294 Y73.188 E91.11628
G1 X93.948 Y72.849 E91.38957
G1 X94.47 Y72.632 E91.5993
G1 X95.233 Y72.388 E91.8965
G1 X96 Y72.167 E92.19263
G1 X96.645 Y72.044 E92.43624
G1 X97.306 Y71.973 E92.68288
G1 X98.113 Y71.903 E92.9834
G1 X98.679 Y71.901 E93.19339
G1 X99.385 Y71.96 E93.45623
G1 X99.572 Y71.979 E93.52596
G1 X101.302 Y72.175 E94.1719
G1 X104.035 Y72.445 E95.19078
G1 X106.78 Y72.639 E96.21171
G1 X109.485 Y72.751 E97.21613
G1 X112.231 Y72.789 E98.23499
G1 X114.974 Y72.75 E99.25275
G1 X117.684 Y72.633 E100.25909
G1 X120.426 Y72.437 E101.27897
G1 X122.254 Y72.256 E101.96047
G1 X123.089 Y72.176 E102.27168
G1 X123.759 Y72.118 E102.52118
G1 X124.333 Y72.118 E102.73413
G1 X125.106 Y72.184 E103.02196
G1 X125.916 Y72.276 E103.3244
G1 X126.47 Y72.388 E103.53409
G1 X127.248 Y72.615 E103.83477
G1 X127.945 Y72.835 E104.10593
G1 X128.476 Y73.054 E104.31903
G1 X129.232 Y73.445 E104.63479
G1 X129.87 Y73.794 E104.90459
G1 X130.352 Y74.114 E105.11923
G1 X130.983 Y74.618 E105.41885
G1 X131.579 Y75.122 E105.70842
G1 X131.957 Y75.497 E105.90596
G1 X132.03 Y75.581 E105.94725
G1 X132.503 Y76.145 E106.22034
G1 X132.97 Y76.727 E106.49718
G1 X133.288 Y77.201 E106.70894
G1 X133.624 Y77.809 E106.96666
G1 X133.769 Y78.086 E107.08266
G1 X134.025 Y78.596 E107.29437
G1 X134.211 Y79.044 E107.47433
G1 X134.482 Y79.861 E107.79368
G1 X134.519 Y79.982 E107.84062
G1 X134.706 Y80.626 E108.08941
G1 X134.819 Y81.19 E108.30282
G1 X134.907 Y81.982 E108.59846
G1 X134.972 Y82.749 E108.88403
G1 X134.972 Y83.307 E109.09105
G1 X134.867 Y84.57 E109.56124
G1 X134.865 Y84.693 E109.60688
G1 X134.757 Y85.93 E110.06755
G1 X134.597 Y88.669 E111.08545
G1 X134.516 Y91.377 E112.09057
G1 X134.511 Y94.123 E113.10934
G1 X134.584 Y96.87 E114.12884
G1 X134.733 Y99.603 E115.14429
G1 X134.959 Y102.309 E116.15171
G1 X135.26 Y105.005 E117.15814
G1 X135.532 Y106.866 E117.8559
G1 X135.759 Y108.519 E118.47492
G1 X135.795 Y108.847 E118.59734
G1 X135.863 Y109.526 E118.85051
G1 X135.922 Y110.206 E119.10374
G1 X135.923 Y110.782 E119.31743
G1 X135.85 Y111.626 E119.63173
G1 X135.809 Y112.032 E119.78312
G1 X135.735 Y112.671 E120.02177
G1 X135.707 Y112.86 E120.09266
G1 X135.618 Y113.374 E120.28619
G1 X135.18 Y116.136 E121.3237
G1 X134.83 Y118.828 E122.33083
G1 X134.553 Y121.561 E123.34997
G1 X134.357 Y124.263 E124.35505
G1 X134.235 Y127.003 E125.37259
G1 X134.191 Y129.737 E126.38704
G1 X134.225 Y132.495 E127.41033
G1 X134.334 Y135.199 E128.41433
G1 X134.525 Y137.961 E129.44148
G1 X134.657 Y139.417 E129.98387
G1 X134.72 Y140.056 E130.22209
G1 X134.775 Y140.719 E130.46891
G1 X134.776 Y141.273 E130.67444
G1 X134.73 Y141.834 E130.88327
G1 X134.688 Y142.227 E131.02991
G1 X134.602 Y142.955 E131.30187
G1 X134.494 Y143.491 E131.50473
G1 X134.226 Y144.42 E131.86344
G1 X134.032 Y145.028 E132.10021
G1 X133.696 Y145.794 E132.41054
G1 X133.322 Y146.503 E132.70793
G1 X133.005 Y147.072 E132.94958
G1 X132.627 Y147.626 E133.1984
G1 X132.57 Y147.7 E133.23305
G1 X132.111 Y148.272 E133.50514
G1 X131.658 Y148.807 E133.76522
G1 X131.202 Y149.26 E134.00368
G1 X130.745 Y149.643 E134.2249
G1 X130.516 Y149.83 E134.33459
G1 X129.958 Y150.274 E134.59914
G1 X129.48 Y150.592 E134.81214
G1 X128.763 Y150.984 E135.11531
G1 X128.054 Y151.353 E135.41184
G1 X127.525 Y151.573 E135.62439
G1 X126.71 Y151.833 E135.94177
G1 X125.901 Y152.065 E136.25401
G1 X125.344 Y152.174 E136.46458
G1 X124.434 Y152.272 E136.80414
G1 X123.714 Y152.332 E137.07218
G1 X123.105 Y152.33 E137.29812
G1 X122.601 Y152.289 E137.48573
G1 X122.039 Y152.236 E137.69515
G1 X121.018 Y152.131 E138.07594
G1 X119.698 Y151.99 E138.56845
G1 X116.965 Y151.77 E139.58567
G1 X114.26 Y151.629 E140.59059
G1 X111.516 Y151.564 E141.6089
G1 X108.769 Y151.577 E142.62805
G1 X106.064 Y151.665 E143.63213
G1 X103.33 Y151.832 E144.64834
G1 X99.919 Y152.15 E145.91931
G1 X99.774 Y152.166 E145.97343
G1 X98.944 Y152.24 E146.28258
G1 X98.369 Y152.241 E146.4959
G1 X97.498 Y152.166 E146.82024
G1 X96.759 Y152.086 E147.09601
G1 X96.187 Y151.976 E147.31211
G1 X95.182 Y151.688 E147.69997
G1 X94.555 Y151.49 E147.94391
G1 X94.042 Y151.283 E148.14915
G1 X93.923 Y151.226 E148.1981
G1 X93.228 Y150.875 E148.48696
G1 X92.604 Y150.549 E148.74816
G1 X92.036 Y150.175 E149.00046
G1 X91.409 Y149.663 E149.30078
G1 X91.302 Y149.572 E149.3529
G1 X90.735 Y149.068 E149.63434
G1 X90.397 Y148.72 E149.81433
G1 X89.746 Y147.945 E150.18983
G1 X89.358 Y147.462 E150.41968
G1 X89.038 Y146.985 E150.63278
G1 X88.592 Y146.177 E150.97518
G1 X88.247 Y145.507 E151.25477
G1 X88.054 Y145.039 E151.44258
G1 X87.752 Y144.111 E151.80464
G1 X87.719 Y144.003 E151.84654
G1 X87.541 Y143.386 E152.08478
G1 X87.43 Y142.821 E152.29841
G1 X87.32 Y141.811 E152.67533
G1 X87.268 Y141.208 E152.89987
G1 X87.266 Y140.627 E153.11543
G1 X87.336 Y139.787 E153.42815
G1 X87.354 Y139.604 E153.49637
G1 X87.467 Y138.61 E153.86752
G1 X87.736 Y136.491 E154.65998
G1 X88.005 Y133.761 E155.67771
G1 X88.197 Y131.017 E156.69822
G1 X88.309 Y128.312 E157.70264
G1 X88.346 Y125.562 E158.72298
G1 X88.306 Y122.825 E159.73852
G1 X88.186 Y120.077 E160.759
G1 X87.994 Y117.395 E161.75656
G1 X87.744 Y114.862 E162.70087
G1 X87.493 Y112.609 E163.54191
G1 X87.46 Y112.258 E163.6727
G1 X87.404 Y111.568 E163.92953
G1 X87.407 Y110.965 E164.15325
G1 X87.449 Y110.455 E164.3431
G1 X87.505 Y109.871 E164.56076
G1 X87.693 Y108.168 E165.19641
G1 X87.785 Y107.433 E165.47122
G1 X88.051 Y104.669 E166.5014
G1 X88.235 Y101.964 E167.50728
G1 X88.342 Y99.256 E168.51273
G1 X88.374 Y96.51 E169.53156
G1 X88.328 Y93.768 E170.54899
G1 X88.204 Y91.025 E171.56768
G1 X88.004 Y88.319 E172.57435
G1 X87.725 Y85.584 E173.5943
G1 X87.56 Y84.13 E174.13719
G1 X87.529 Y83.814 E174.25499
G1 X87.471 Y83.102 E174.52002
G1 X87.468 Y82.593 E174.70886
G1 X87.522 Y81.936 E174.95343
G1 X87.548 Y81.676 E175.05037
G1 X87.63 Y80.961 E175.31738
G1 X87.737 Y80.421 E175.52161
G1 X87.903 Y79.841 E175.74543
G1 X88.19 Y78.928 E176.10049
G1 X88.411 Y78.387 E176.31731
G1 X88.73 Y77.768 E176.57566
G1 X88.857 Y77.531 E176.67541
G1 X89.168 Y76.976 E176.91144
G1 X89.529 Y76.448 E177.14874
G1 X89.996 Y75.867 E177.42529
G10
G0 F5400 X96.817 Y74.549
G0 X98.463 Y74.399
G0 X100.118 Y74.575
G0 X101.683 Y75.06
G0 X103.154 Y75.858
G0 X104.415 Y76.913
G0 X105.457 Y78.195
G0 X121.229 Y82.474
;TYPE:SUPPORT
G11
G1 F1800 X121.404 Y81.93 E177.6373
G1 X121.679 Y81.41 E177.85554
G1 X122.013 Y81.009 E178.04915
G1 X122.456 Y80.643 E178.26234
G1 X122.97 Y80.366 E178.47896
G1 X123.504 Y80.2 E178.68643
G1 X124.055 Y80.153 E178.89159
G1 X124.599 Y80.198 E179.09411
G1 X125.163 Y80.38 E179.31398
G1 X125.667 Y80.654 E179.52681
G1 X126.101 Y81.003 E179.73342
G1 X126.452 Y81.432 E179.93906
G1 X126.729 Y81.953 E180.15798
G1 X126.872 Y82.466 E180.35556
G1 X126.934 Y83.045 E180.57159
G1 X126.882 Y83.595 E180.77655
G1 X126.713 Y84.148 E180.99108
G1 X126.441 Y84.655 E181.20454
G1 X126.105 Y85.067 E181.40178
G1 X125.645 Y85.434 E181.6201
G1 X125.162 Y85.693 E181.82343
G1 X124.622 Y85.859 E182.03302
G1 X124.055 Y85.915 E182.2444
G1 X123.407 Y85.849 E182.48605
G1 X122.962 Y85.705 E182.65958
G1 X122.463 Y85.438 E182.86954
G1 X122.016 Y85.068 E183.08482
G1 X121.639 Y84.62 E183.30205
G1 X121.405 Y84.162 E183.49286
G1 X121.222 Y83.564 E183.72487
G1 X121.17 Y83.022 E183.92688
G1 X121.229 Y82.474 E184.13136
G0 F5400 X121.65 Y84.006
G1 F1800 X126.463 Y84.006 E185.91698
G0 F5400 X126.009 Y84.742
G1 F1800 X126.009 Y81.333 E187.18172
G10
G0 F5400 X115.423 Y104.597
G0 X114.161 Y106.735
G0 X113.684 Y108.419
G0 X99.564 Y139.456
G11
G1 F1800 X99.564 Y143.126 E188.54329
G1 X99.553 Y143.121 E188.54777
G1 X98.664 Y143.026 E188.87947
G1 X97.697 Y143.125 E189.2401
G1 X97.697 Y139.445 E190.60538
G1 X97.742 Y139.467 E190.62397
G1 X98.661 Y139.589 E190.96791
G1 X99.516 Y139.48 E191.28768
G1 X99.564 Y139.456 E191.30759
G0 F5400 X99.283 Y140.01
G1 F1800 X97.976 Y140.01 E191.79249
G0 F5400 X98.007 Y139.785
G1 F1800 X98.007 Y142.811 E192.91513
G10
;MESH:Majeure3.stl
G0 F5400 X95.647 Y142.811
G0 X95.561 Y145.577
G11
G0 X95.647 Y145.528
;TYPE:WALL-INNER
G1 F1800 X96.532 Y146.055 E193.29727
G1 X97.273 Y146.173 E193.57565
G1 X97.948 Y146.208 E193.82641
G1 X97.989 Y146.218 E193.84207
G1 X98.615 Y146.255 E194.07472
G1 X99.474 Y146.21 E194.39384
G1 X99.983 Y146.172 E194.58321
G1 X100.993 Y146.004 E194.96307
G1 X101.614 Y145.49 E195.26214
G1 X101.614 Y136.698 E198.52397
G1 X100.797 Y135.461 E199.07396
G1 X100.571 Y135.193 E199.20402
G1 X99.152 Y134.654 E199.76717
G1 X98.575 Y134.436 E199.996
G1 X98.055 Y134.657 E200.20563
G1 X96.783 Y135.198 E200.71845
G1 X95.647 Y136.619 E201.3934
G1 X95.647 Y145.528 E204.69863
G0 F5400 X95.561 Y145.577
G0 X99.438 Y147.677
G0 X99.447 Y147.776
G1 F1800 X98.628 Y147.859 E205.00404
G1 X97.27 Y147.724 E205.51034
G1 X95.949 Y147.324 E206.02241
G1 X95.469 Y147.078 E206.22251
