;FLAVOR:UltiGCode
;TIME:2151
;MATERIAL:8175
;MATERIAL2:0
;NOZZLE_DIAMETER:0.8
;MINX:60.715
;MINY:68.776
;MINZ:0.53
;MAXX:155.03
;MAXY:130.06
;MAXZ:4.93
;Generated with Cura_SteamEngine 4.11.0
M82 ;absolute extrusion mode
G0 F3000 Y50 ;avoid prime blob
G92 E0
G92 E0
G10
;LAYER_COUNT:23
;LAYER:0
M107
G0 F5400 X79.203 Y73.379 Z0.53
;TYPE:SKIRT
G11
G1 F1800 X79.599 Y72.969 E0.21148
G1 X79.924 Y72.654 E0.37939
G1 X80.364 Y72.249 E0.60126
G1 X80.611 Y72.038 E0.72178
G1 X81.276 Y71.502 E1.03865
G1 X81.592 Y71.264 E1.18542
G1 X82.069 Y70.928 E1.40189
G1 X82.315 Y70.766 E1.51116
G1 X83.046 Y70.316 E1.82963
G1 X83.292 Y70.176 E1.93464
G1 X83.928 Y69.839 E2.20168
G1 X84.194 Y69.708 E2.31168
G1 X84.901 Y69.389 E2.59944
G1 X85.591 Y69.114 E2.87501
G1 X85.869 Y69.019 E2.98401
G1 X86.372 Y68.898 E3.17595
G1 X87.026 Y68.857 E3.41906
G1 X88.071 Y68.895 E3.80701
G1 X90.792 Y68.955 E4.81674
G1 X93.539 Y68.937 E5.8359
G1 X95.754 Y68.861 E6.65815
G1 X96.507 Y68.88 E6.9376
G1 X97.779 Y69.034 E7.41296
G1 X100.497 Y69.326 E8.42714
G1 X103.23 Y69.542 E9.44425
G1 X105.973 Y69.68 E10.46319
G1 X108.684 Y69.741 E11.46922
G1 X111.426 Y69.724 E12.48652
G1 X114.171 Y69.629 E13.50553
G1 X116.876 Y69.459 E14.51106
G1 X119.585 Y69.212 E15.52027
G1 X120.521 Y69.097 E15.87014
G1 X122.836 Y68.842 E16.7342
G1 X123.738 Y68.783 E17.06955
G1 X124.075 Y68.776 E17.19461
G1 X125.061 Y68.789 E17.56045
G1 X125.646 Y68.821 E17.77781
G1 X126.199 Y68.877 E17.98402
G1 X127.04 Y68.992 E18.29893
G1 X127.32 Y69.04 E18.40433
G1 X128.109 Y69.201 E18.70308
G1 X128.507 Y69.296 E18.85489
G1 X129.092 Y69.455 E19.07979
G1 X129.622 Y69.62 E19.28573
G1 X130.381 Y69.893 E19.58498
G1 X131.023 Y70.156 E19.84238
G1 X131.434 Y70.34 E20.00944
G1 X132.048 Y70.638 E20.26265
G1 X132.876 Y71.095 E20.61352
G1 X133.182 Y71.282 E20.74656
G1 X133.904 Y71.755 E21.06679
G1 X134.082 Y71.88 E21.14748
G1 X134.749 Y72.382 E21.45719
G1 X135.14 Y72.696 E21.64324
G1 X135.655 Y73.147 E21.89721
G1 X135.739 Y73.225 E21.93974
G1 X136.308 Y73.773 E22.23282
G1 X136.56 Y74.033 E22.36716
G1 X136.965 Y74.473 E22.58902
G1 X137.313 Y74.878 E22.78713
G1 X137.606 Y75.242 E22.96048
G1 X138.041 Y75.83 E23.23184
G1 X138.459 Y76.443 E23.5071
G1 X138.862 Y77.094 E23.79116
G1 X138.967 Y77.277 E23.86943
G1 X139.36 Y78.015 E24.17963
G1 X139.451 Y78.2 E24.25612
G1 X139.865 Y79.108 E24.62635
G1 X139.948 Y79.306 E24.706
G1 X140.579 Y80.963 E25.36382
G1 X141.577 Y83.487 E26.37076
G1 X142.679 Y86.054 E27.40717
G1 X143.807 Y88.494 E28.40446
G1 X145.025 Y90.941 E29.41854
G1 X146.319 Y93.367 E30.43862
G1 X147.665 Y95.728 E31.44689
G1 X149.087 Y98.065 E32.46181
G1 X150.571 Y100.357 E33.47482
G1 X152.033 Y102.484 E34.43237
G1 X152.927 Y103.75 E35.00736
G1 X153.118 Y104.038 E35.13557
G1 X153.566 Y104.764 E35.45207
G1 X153.713 Y105.021 E35.56191
G1 X154.089 Y105.734 E35.86096
G1 X154.177 Y105.916 E35.93596
G1 X154.491 Y106.612 E36.21924
G1 X154.775 Y107.32 E36.50226
G1 X154.868 Y107.595 E36.60996
G1 X154.989 Y108.098 E36.80189
G1 X155.03 Y108.752 E37.045
G1 X154.992 Y109.798 E37.43333
G1 X154.932 Y112.52 E38.44343
G1 X154.95 Y115.268 E39.46296
G1 X155.024 Y117.445 E40.2711
G1 X155.03 Y117.722 E40.37389
G1 X155.001 Y118.239 E40.566
G1 X154.856 Y118.862 E40.80331
G1 X154.654 Y119.44 E41.03046
G1 X154.426 Y119.992 E41.25204
G1 X154.269 Y120.342 E41.39435
G1 X153.971 Y120.952 E41.64622
G1 X153.866 Y121.15 E41.72937
G1 X153.429 Y121.918 E42.0572
G1 X153.264 Y122.186 E42.17396
G1 X152.889 Y122.758 E42.42771
G1 X152.807 Y122.876 E42.48102
G1 X152.495 Y123.31 E42.67932
G1 X152.165 Y123.73 E42.87749
G1 X151.505 Y124.507 E43.25571
G1 X151.301 Y124.732 E43.36839
G1 X150.906 Y125.14 E43.57907
G1 X150.655 Y125.383 E43.70868
G1 X150.084 Y125.904 E43.99546
G1 X149.764 Y126.177 E44.15151
G1 X149.246 Y126.592 E44.39776
G1 X148.528 Y127.116 E44.72753
G1 X148.277 Y127.283 E44.83938
G1 X147.43 Y127.807 E45.20889
G1 X147.233 Y127.92 E45.29314
G1 X146.612 Y128.248 E45.5537
G1 X146.433 Y128.336 E45.6277
G1 X145.467 Y128.775 E46.02136
G1 X145.271 Y128.857 E46.10018
G1 X144.684 Y129.08 E46.33314
G1 X144.478 Y129.15 E46.41386
G1 X143.554 Y129.434 E46.77249
G1 X143.369 Y129.485 E46.84369
G1 X142.583 Y129.678 E47.14396
G1 X142.369 Y129.724 E47.22516
G1 X141.517 Y129.875 E47.54618
G1 X141.302 Y129.906 E47.62677
G1 X140.51 Y129.994 E47.92241
G1 X139.605 Y130.053 E48.25888
G1 X139.268 Y130.06 E48.38393
G1 X138.282 Y130.047 E48.74977
G1 X137.697 Y130.015 E48.96713
G1 X137.551 Y130.002 E49.02151
G1 X136.958 Y129.939 E49.24275
G1 X134.514 Y129.634 E50.15651
G1 X131.752 Y129.369 E51.18592
G1 X129.046 Y129.186 E52.19213
G1 X126.338 Y129.08 E53.19757
G1 X123.56 Y129.05 E54.22827
G1 X120.886 Y129.097 E55.22048
G1 X118.109 Y129.223 E56.2518
G1 X115.364 Y129.427 E57.27301
G1 X113.733 Y129.586 E57.88098
G1 X112.564 Y129.709 E58.31707
G1 X112.091 Y129.725 E58.49265
G1 X111.047 Y129.687 E58.88023
G1 X108.325 Y129.627 E59.89034
G1 X105.579 Y129.645 E60.90913
G1 X103.363 Y129.721 E61.73175
G1 X102.699 Y129.712 E61.97812
G1 X102.012 Y129.648 E62.2341
G1 X100.513 Y129.487 E62.79342
G1 X97.779 Y129.27 E63.81093
G1 X95.038 Y129.132 E64.82913
G1 X92.329 Y129.071 E65.83442
G1 X89.585 Y129.088 E66.85246
G1 X86.842 Y129.182 E67.87071
G1 X84.136 Y129.352 E68.87662
G1 X81.418 Y129.6 E69.88919
G1 X80.209 Y129.748 E70.34107
G1 X78.379 Y129.954 E71.02429
G1 X78.174 Y129.971 E71.10061
G1 X77.054 Y130.028 E71.51667
G1 X76.246 Y130.03 E71.81643
G1 X75.746 Y130.004 E72.00219
G1 X74.946 Y129.936 E72.30006
G1 X74.092 Y129.823 E72.61965
G1 X73.729 Y129.76 E72.75634
G1 X72.988 Y129.606 E73.03712
G1 X72.456 Y129.479 E73.24004
G1 X71.883 Y129.32 E73.46066
G1 X71.088 Y129.058 E73.77121
G1 X70.587 Y128.869 E73.96986
G1 X69.957 Y128.607 E74.223
G1 X69.671 Y128.477 E74.33955
G1 X68.957 Y128.129 E74.63423
G1 X68.74 Y128.013 E74.72552
G1 X68.134 Y127.668 E74.98423
G1 X67.949 Y127.555 E75.06465
G1 X67.095 Y126.993 E75.44394
G1 X66.664 Y126.687 E75.64004
G1 X66.232 Y126.35 E75.84331
G1 X65.456 Y125.69 E76.22126
G1 X65.236 Y125.49 E76.33156
G1 X64.827 Y125.095 E76.54251
G1 X64.507 Y124.765 E76.71305
G1 X64.106 Y124.329 E76.93282
G1 X63.894 Y124.082 E77.05358
G1 X63.359 Y123.418 E77.36994
G1 X63.114 Y123.091 E77.52153
G1 X62.763 Y122.592 E77.74787
G1 X62.624 Y122.379 E77.84223
G1 X62.13 Y121.574 E78.19264
G1 X62.031 Y121.398 E78.26755
G1 X61.656 Y120.686 E78.5661
G1 X61.566 Y120.5 E78.64276
G1 X61.247 Y119.793 E78.93052
G1 X60.97 Y119.099 E79.20775
G1 X60.869 Y118.798 E79.32554
G1 X60.752 Y118.295 E79.51713
G1 X60.715 Y117.665 E79.75127
G1 X60.753 Y116.623 E80.13811
G1 X60.813 Y113.901 E81.14821
G1 X60.795 Y111.153 E82.16774
G1 X60.72 Y108.948 E82.98627
G1 X60.715 Y108.69 E83.08201
G1 X60.745 Y108.173 E83.27414
G1 X60.889 Y107.555 E83.50956
G1 X61.091 Y106.981 E83.73531
G1 X61.319 Y106.429 E83.95689
G1 X61.476 Y106.079 E84.0992
G1 X61.774 Y105.469 E84.35107
G1 X61.879 Y105.271 E84.43422
G1 X62.316 Y104.503 E84.76205
G1 X62.483 Y104.233 E84.87983
G1 X62.929 Y103.556 E85.1806
G1 X64.565 Y101.21 E86.2417
G1 X66.058 Y98.933 E87.25187
G1 X67.474 Y96.631 E88.25455
G1 X68.862 Y94.229 E89.28377
G1 X70.154 Y91.838 E90.29206
G1 X71.383 Y89.399 E91.30531
G1 X72.559 Y86.892 E92.33266
G1 X73.626 Y84.441 E93.32441
G1 X74.666 Y81.859 E94.35711
G1 X75.322 Y80.06 E95.06753
G1 X75.822 Y78.737 E95.59225
G1 X76.09 Y78.09 E95.85206
G1 X76.218 Y77.81 E95.96628
G1 X76.565 Y77.099 E96.2598
G1 X76.681 Y76.882 E96.35109
G1 X77.026 Y76.276 E96.6098
G1 X77.139 Y76.091 E96.69022
G1 X77.701 Y75.237 E97.06951
G1 X78.026 Y74.779 E97.27786
G1 X78.343 Y74.374 E97.46867
G1 X79.004 Y73.597 E97.84713
G1 X79.203 Y73.379 E97.95664
G10
;MESH:Servo-PulleyV2.stl(2)
G0 F5400 X82.169 Y76.147
G0 X88.095 Y79.113
G0 X91.559 Y78.105
;TYPE:WALL-INNER
G11
G1 F1800 X91.682 Y78.402 E98.0759
G1 X91.708 Y78.465 E98.10119
G1 X91.803 Y78.694 E98.19317
G1 X91.562 Y78.695 E98.2219
G1 X91.353 Y78.695 E98.26233
G1 X91.2 Y78.696 E98.30164
G1 X91.149 Y78.697 E98.3137
G1 X91.199 Y78.603 E98.31832
G1 X91.224 Y78.519 E98.3222
G1 X91.351 Y78.103 E98.4154
G1 X91.352 Y78.085
G1 X91.404 Y77.579 E98.56187
G1 X91.366 Y77.191 E98.70651
G1 X91.363 Y77.17 E98.71438
G1 X91.406 Y77.17
G1 X91.559 Y77.171 E98.71842
G1 X91.559 Y77.579 E98.75894
G1 X91.559 Y78.105 E98.81201
G0 F5400 X93.571 Y79.113
G0 X95.273 Y78.824
G0 X96.848 Y77.053
G1 F1800 X96.502 Y76.218 E99.14734
G1 X96.971 Y74.928 E99.65657
G1 X97.106 Y74.554 E99.80409
G1 X97.142 Y74.572 E99.81902
G1 X97.484 Y74.775 E99.91287
G1 X97.792 Y74.958 E100.04579
G1 X98.41 Y75.381 E100.32363
G1 X99.001 Y75.835 E100.60012
G1 X99.513 Y76.288 E100.85375
G1 X100.056 Y76.831 E101.13864
G1 X100.559 Y77.404 E101.42151
G1 X101.004 Y77.976 E101.69038
G1 X101.422 Y78.584 E101.96412
G1 X101.794 Y79.214 E102.23555
G1 X102.123 Y79.86 E102.50451
G1 X102.429 Y80.566 E102.78998
G1 X102.666 Y81.221 E103.0484
G1 X102.874 Y81.948 E103.32894
G1 X103.041 Y82.68 E103.60749
G1 X103.156 Y83.412 E103.88239
G1 X103.22 Y84.098 E104.13801
G1 X103.248 Y84.878 E104.42757
G1 X103.22 Y85.641 E104.71084
G1 X103.156 Y86.342 E104.97199
G1 X103.038 Y87.093 E105.25403
G1 X102.877 Y87.811 E105.52702
G1 X102.677 Y88.502 E105.7939
G1 X102.426 Y89.199 E106.06875
G1 X102.139 Y89.866 E106.33814
G1 X101.792 Y90.552 E106.62335
G1 X101.439 Y91.15 E106.88098
G1 X101.01 Y91.778 E107.16314
G1 X100.566 Y92.346 E107.43061
G1 X100.06 Y92.923 E107.71533
G1 X99.518 Y93.465 E107.9997
G1 X99.007 Y93.918 E108.25305
G1 X98.355 Y94.417 E108.55766
G1 X97.809 Y94.79 E108.80298
G1 X97.146 Y95.184 E109.08911
G1 X96.51 Y95.507 E109.35375
G1 X95.818 Y95.805 E109.63328
G1 X95.158 Y96.043 E109.89357
G1 X94.404 Y96.26 E110.18466
G1 X93.699 Y96.419 E110.45278
G1 X92.982 Y96.533 E110.72213
G1 X92.237 Y96.607 E110.99989
G1 X91.496 Y96.627 E111.2749
G1 X90.763 Y96.607 E111.54694
G1 X90.025 Y96.533 E111.82211
G1 X89.286 Y96.417 E112.09964
G1 X88.573 Y96.257 E112.37074
G1 X87.866 Y96.053 E112.64374
G1 X87.182 Y95.805 E112.91367
G1 X86.499 Y95.511 E113.18954
G1 X85.833 Y95.174 E113.46646
G1 X85.207 Y94.804 E113.73624
G1 X84.59 Y94.381 E114.01377
G1 X84.011 Y93.933 E114.28538
G1 X83.474 Y93.457 E114.5516
G1 X82.922 Y92.905 E114.84122
G1 X82.446 Y92.368 E115.10745
G1 X81.992 Y91.782 E115.38247
G1 X81.574 Y91.171 E115.65712
G1 X81.203 Y90.543 E115.92773
G1 X80.867 Y89.879 E116.20382
G1 X80.574 Y89.199 E116.47852
G1 X80.328 Y88.516 E116.74785
G1 X80.119 Y87.79 E117.02813
G1 X79.962 Y87.093 E117.2932
G1 X79.846 Y86.354 E117.57073
G1 X79.772 Y85.613 E117.847
G1 X79.752 Y84.878 E118.11979
G1 X79.773 Y84.134 E118.39592
G1 X79.851 Y83.36 E118.68453
G1 X79.959 Y82.675 E118.94181
G1 X80.121 Y81.965 E119.21199
G1 X80.327 Y81.246 E119.48947
G1 X80.58 Y80.545 E119.76596
G1 X80.864 Y79.886 E120.03219
G1 X81.205 Y79.214 E120.31176
G1 X81.578 Y78.584 E120.58338
G1 X81.99 Y77.984 E120.85341
G1 X82.456 Y77.378 E121.13702
G1 X82.911 Y76.864 E121.3917
G1 X83.474 Y76.301 E121.68709
G1 X84.013 Y75.823 E121.95436
G1 X84.584 Y75.381 E122.22226
G1 X85.218 Y74.948 E122.50709
G1 X85.506 Y74.778 E122.63117
G1 X85.84 Y74.581 E122.77503
G1 X85.891 Y74.554 E122.79644
G1 X86.023 Y74.918 E122.88921
G1 X86.47 Y76.153 E123.37648
G1 X86.255 Y76.555 E123.54561
G1 X86.103 Y77.055 E123.73949
G1 X86.05 Y77.579 E123.93489
G1 X86.103 Y78.103 E124.13029
G1 X86.255 Y78.603 E124.32417
G1 X86.502 Y79.065 E124.51853
G1 X86.835 Y79.471 E124.71334
G1 X87.178 Y79.752 E124.87784
G1 X87.241 Y79.804 E124.90815
G1 X87.48 Y79.932 E125.00873
G1 X87.654 Y80.025 E125.08193
G1 X87.516 Y80.138 E125.09877
G1 X87.257 Y80.35 E125.17829
G1 X87.201 Y80.409 E125.20847
G1 X86.711 Y80.929 E125.47354
G1 X86.262 Y81.562 E125.76147
G1 X85.892 Y82.229 E126.04445
G1 X85.724 Y82.647 E126.21158
G1 X85.712 Y82.676 E126.22323
G1 X85.634 Y82.612
G1 X84.723 Y82.236 E126.58886
G1 X83.672 Y82.236 E126.97878
G1 X82.763 Y82.612 E127.34373
G1 X82.304 Y82.989 E127.5641
G1 X81.973 Y83.393 E127.75787
G1 X81.725 Y83.856 E127.95273
G1 X81.554 Y84.424 E128.1728
G1 X81.554 Y85.334 E128.51041
G1 X81.724 Y85.903 E128.73073
G1 X81.974 Y86.37 E128.92725
G1 X82.35 Y86.825 E129.14623
G1 X83.106 Y87.331 E129.48374
G1 X83.738 Y87.525 E129.72901
G1 X84.656 Y87.525 E130.06959
G1 X85.226 Y87.351 E130.29069
G1 X85.668 Y87.115 E130.47658
G1 X85.715 Y87.089 E130.49651
G1 X85.737 Y87.143
G1 X85.905 Y87.556 E130.61106
G1 X86.279 Y88.222 E130.89444
G1 X86.733 Y88.853 E131.18284
G1 X87.278 Y89.426 E131.47623
G1 X87.886 Y89.919 E131.76663
G1 X88.537 Y90.326 E132.05147
G1 X89.22 Y90.651 E132.33208
G1 X89.282 Y90.67 E132.35614
G1 X89.292 Y90.674 E132.36014
G1 X89.275 Y90.694
G1 X89.028 Y91.156 E132.49465
G1 X88.876 Y91.656 E132.68854
G1 X88.823 Y92.18 E132.88393
G1 X88.876 Y92.704 E133.07933
G1 X89.028 Y93.204 E133.27321
G1 X89.275 Y93.666 E133.46757
G1 X89.608 Y94.072 E133.66238
G1 X90.014 Y94.405 E133.85719
G1 X90.476 Y94.652 E134.05155
G1 X90.976 Y94.804 E134.24543
G1 X91.5 Y94.857 E134.44083
G1 X92.024 Y94.804 E134.63623
G1 X92.524 Y94.652 E134.83011
G1 X92.986 Y94.405 E135.02447
G1 X93.392 Y94.072 E135.21928
G1 X93.725 Y93.666 E135.41409
G1 X93.972 Y93.204 E135.60845
G1 X94.124 Y92.704 E135.80233
G1 X94.177 Y92.18 E135.99773
G1 X94.124 Y91.656 E136.19312
G1 X93.972 Y91.156 E136.38701
G1 X93.725 Y90.694 E136.58137
G1 X93.708 Y90.674 E136.5911
G1 X93.784 Y90.65
G1 X94.514 Y90.298 E136.89178
G1 X95.144 Y89.9 E137.16824
G1 X95.774 Y89.378 E137.47178
G1 X96.298 Y88.807 E137.7593
G1 X96.752 Y88.174 E138.0483
G1 X97.125 Y87.492 E138.33669
G1 X97.273 Y87.112 E138.48799
G1 X97.285 Y87.082 E138.49997
G1 X97.364 Y87.147
G1 X98.273 Y87.523 E138.86493
G1 X99.326 Y87.523 E139.25559
G1 X100.235 Y87.147 E139.62054
G1 X100.692 Y86.77 E139.84033
G1 X101.067 Y86.313 E140.05965
G1 X101.444 Y85.407 E140.42372
G1 X101.444 Y84.354 E140.81438
G1 X101.068 Y83.443 E141.18002
G1 X100.689 Y82.984 E141.40086
G1 X100.286 Y82.654 E141.5941
G1 X99.824 Y82.407 E141.78846
G1 X99.324 Y82.255 E141.98234
G1 X98.8 Y82.202 E142.17774
G1 X98.275 Y82.255 E142.3735
G1 X97.775 Y82.407 E142.56739
G1 X97.331 Y82.644 E142.75411
G1 X97.313 Y82.654 E142.76175
G1 X97.285 Y82.677 E142.77519
G1 X97.281 Y82.667
G1 X97.259 Y82.609
G1 X97.113 Y82.237 E142.8761
G1 X96.734 Y81.556 E143.16525
G1 X96.278 Y80.927 E143.45348
G1 X95.801 Y80.411 E143.71418
G1 X95.75 Y80.356 E143.74201
G1 X95.445 Y80.106 E143.88832
G1 X95.319 Y80.003 E143.94869
G1 X95.507 Y79.903 E143.97805
G1 X95.691 Y79.804 E144.0226
G1 X95.749 Y79.756 E144.05053
G1 X96.095 Y79.473 E144.21636
G1 X96.472 Y79.014 E144.43673
G1 X96.848 Y78.105 E144.80168
G1 X96.848 Y77.053 E145.19197
G0 F5400 X95.853 Y76.48
G1 F1800 X95.713 Y76.339 E145.26569
G1 X96.603 Y73.891 E146.23206
G1 X96.716 Y73.579 E146.35517
G1 X96.819 Y73.623 E146.39672
G1 X97.115 Y73.773 E146.48109
G1 X97.49 Y73.964 E146.63722
G1 X98.165 Y74.365 E146.92851
G1 X98.814 Y74.809 E147.22024
G1 X99.45 Y75.297 E147.51765
G1 X99.997 Y75.782 E147.78887
G1 X100.568 Y76.353 E148.08846
G1 X101.097 Y76.955 E148.38578
G1 X101.574 Y77.569 E148.67424
G1 X102.012 Y78.205 E148.96073
G1 X102.406 Y78.872 E149.24814
G1 X102.766 Y79.581 E149.54314
G1 X103.075 Y80.296 E149.83212
G1 X103.334 Y81.012 E150.1146
G1 X103.554 Y81.778 E150.41028
G1 X103.729 Y82.548 E150.70323
G1 X103.85 Y83.32 E150.99314
G1 X103.92 Y84.07 E151.2726
G1 X103.949 Y84.878 E151.57256
G1 X103.92 Y85.677 E151.86919
G1 X103.85 Y86.438 E152.15271
G1 X103.728 Y87.215 E152.44451
G1 X103.557 Y87.977 E152.73424
G1 X103.339 Y88.731 E153.02543
G1 X103.079 Y89.453 E153.31013
G1 X102.772 Y90.166 E153.59813
G1 X102.407 Y90.887 E153.89795
G1 X102.025 Y91.534 E154.1767
G1 X101.58 Y92.185 E154.46926
G1 X101.099 Y92.8 E154.75892
G1 X100.571 Y93.402 E155.05599
