;FLAVOR:UltiGCode
;TIME:3756
;MATERIAL:13716
;MATERIAL2:0
;NOZZLE_DIAMETER:0.8
;MINX:70.11
;MINY:67.037
;MINZ:0.53
;MAXX:152.902
;MAXY:155.963
;MAXZ:5.33
;Generated with Cura_SteamEngine 4.11.0
M82 ;absolute extrusion mode
G0 F3000 Y50 ;avoid prime blob
G92 E0
G92 E0
G10
;LAYER_COUNT:25
;LAYER:0
M107
G0 F5400 X75.346 Y94.245 Z0.53
;TYPE:SKIRT
G11
G1 F1800 X78.954 Y91.427 E1.69847
G1 X79.592 Y90.945 E1.99512
G1 X80.028 Y90.633 E2.19403
G1 X82.241 Y89.002 E3.21394
G1 X84.371 Y87.337 E4.21695
G1 X86.5 Y85.573 E5.24271
G1 X88.539 Y83.784 E6.24907
G1 X90.53 Y81.937 E7.25663
G1 X92.509 Y79.994 E8.28556
G1 X94.382 Y78.044 E9.28867
G1 X96.275 Y75.961 E10.33291
G1 X97.391 Y74.697 E10.95848
G1 X100.362 Y71.409 E12.60255
G1 X100.836 Y70.9 E12.86059
G1 X101.217 Y70.55 E13.05253
G1 X101.695 Y70.236 E13.26471
G1 X102.315 Y69.923 E13.52238
G1 X106.406 Y67.97 E15.20422
G1 X107.081 Y67.659 E15.47995
G1 X107.566 Y67.48 E15.67175
G1 X108.178 Y67.366 E15.9027
G1 X108.82 Y67.318 E16.14155
G1 X113.395 Y67.066 E17.84145
G1 X114.089 Y67.037 E18.09915
G1 X114.606 Y67.055 E18.29107
G1 X115.214 Y67.182 E18.52151
G1 X115.811 Y67.377 E18.75451
G1 X120.195 Y68.906 E20.47706
G1 X120.803 Y69.128 E20.71719
G1 X121.274 Y69.343 E20.90928
G1 X121.792 Y69.696 E21.14184
G1 X121.926 Y69.808 E21.20663
G1 X122.339 Y70.167 E21.40965
G1 X125.706 Y73.17 E23.08346
G1 X126.185 Y73.609 E23.32451
G1 X126.534 Y73.979 E23.51321
G1 X126.995 Y74.542 E23.78317
G1 X127.78 Y75.528 E24.25075
G1 X129.53 Y77.604 E25.25809
G1 X131.371 Y79.665 E26.28335
G1 X133.235 Y81.639 E27.29062
G1 X135.155 Y83.558 E28.29773
G1 X137.16 Y85.454 E29.3215
G1 X139.205 Y87.279 E30.33838
G1 X141.263 Y89.014 E31.33703
G1 X143.441 Y90.748 E32.36988
G1 X145.596 Y92.366 E33.36965
G1 X146.332 Y92.888 E33.70441
G1 X146.964 Y93.351 E33.99507
G1 X147.356 Y93.688 E34.18685
G1 X147.744 Y94.148 E34.41012
G1 X148.087 Y94.619 E34.62628
G1 X150.64 Y98.221 E36.26425
G1 X151.059 Y98.83 E36.5385
G1 X151.318 Y99.278 E36.73048
G1 X151.555 Y99.939 E36.991
G1 X151.716 Y100.606 E37.24556
G1 X152.695 Y104.949 E38.89724
G1 X152.835 Y105.614 E39.14937
G1 X152.902 Y106.127 E39.34131
G1 X152.866 Y106.829 E39.60209
G1 X152.753 Y107.537 E39.86808
G1 X151.992 Y111.879 E41.50352
G1 X151.858 Y112.576 E41.76684
G1 X151.741 Y113.02 E41.93719
G1 X151.547 Y113.59 E42.16057
G1 X150.982 Y115.173 E42.78415
G1 X150.135 Y117.776 E43.7997
G1 X149.364 Y120.397 E44.81329
G1 X148.67 Y123.026 E45.82206
G1 X148.038 Y125.723 E46.84976
G1 X147.497 Y128.383 E47.85682
G1 X147.027 Y131.072 E48.86956
G1 X146.632 Y133.782 E49.8856
G1 X146.312 Y136.508 E50.90389
G1 X146.241 Y137.271 E51.18818
G1 X146.188 Y137.717 E51.35481
G1 X146.102 Y138.322 E51.58153
G1 X145.418 Y142.698 E53.22473
G1 X145.297 Y143.407 E53.49158
G1 X145.171 Y143.908 E53.68324
G1 X144.872 Y144.558 E53.94868
G1 X144.507 Y145.17 E54.21304
G1 X142.236 Y148.875 E55.82527
G1 X141.833 Y149.51 E56.10429
G1 X141.523 Y149.924 E56.29618
G1 X141.006 Y150.402 E56.5574
G1 X140.416 Y150.84 E56.83001
G1 X136.859 Y153.413 E58.45872
G1 X136.292 Y153.811 E58.71573
G1 X135.847 Y154.075 E58.90769
G1 X135.281 Y154.292 E59.13258
G1 X135.115 Y154.337 E59.19639
G1 X134.524 Y154.485 E59.42242
G1 X130.214 Y155.509 E61.06595
G1 X129.508 Y155.667 E61.33435
G1 X128.996 Y155.741 E61.52628
G1 X128.36 Y155.722 E61.76234
G1 X128.161 Y155.696 E61.83679
G1 X127.457 Y155.593 E62.10076
G1 X124.694 Y155.225 E63.13488
G1 X121.96 Y154.94 E64.15469
G1 X119.268 Y154.736 E65.15629
G1 X116.52 Y154.606 E66.17694
G1 X113.812 Y154.554 E67.18179
G1 X111.068 Y154.58 E68.19986
G1 X108.324 Y154.682 E69.21859
G1 X105.588 Y154.863 E70.23586
G1 X102.891 Y155.117 E71.24088
G1 X100.154 Y155.455 E72.26402
G1 X97.03 Y155.928 E73.43623
G1 X96.39 Y155.963 E73.67403
G1 X95.684 Y155.934 E73.93617
G1 X91.3 Y155.685 E75.56526
G1 X90.566 Y155.632 E75.83828
G1 X90.054 Y155.555 E76.03037
G1 X89.48 Y155.367 E76.25445
G1 X89.338 Y155.304 E76.31209
G1 X88.717 Y155.014 E76.56636
G1 X84.8 Y153.118 E78.18086
G1 X84.157 Y152.796 E78.44765
G1 X83.714 Y152.53 E78.63936
G1 X83.185 Y152.061 E78.90164
G1 X82.711 Y151.543 E79.16214
G1 X79.791 Y148.242 E80.79719
G1 X79.327 Y147.701 E81.06161
G1 X79.022 Y147.283 E81.25359
G1 X78.717 Y146.651 E81.51393
G1 X78.469 Y145.96 E81.78631
G1 X77.066 Y141.844 E83.39962
G1 X76.834 Y141.133 E83.67708
G1 X76.712 Y140.63 E83.86911
G1 X76.675 Y140.298 E83.99304
G1 X76.617 Y139.346 E84.34689
G1 X76.412 Y136.594 E85.37071
G1 X76.134 Y133.903 E86.37439
G1 X75.78 Y131.215 E87.38024
G1 X75.334 Y128.443 E88.42188
G1 X74.834 Y125.812 E89.41545
G1 X74.254 Y123.168 E90.4197
G1 X73.588 Y120.491 E91.44314
G1 X72.848 Y117.842 E92.46355
G1 X72.088 Y115.381 E93.41912
G1 X71.757 Y114.353 E93.8198
G1 X71.542 Y113.617 E94.10426
G1 X70.381 Y109.43 E95.71625
G1 X70.202 Y108.745 E95.97892
G1 X70.11 Y108.236 E96.17082
G1 X70.114 Y107.527 E96.43386
G1 X70.194 Y106.808 E96.70226
G1 X70.743 Y102.434 E98.33774
G1 X70.839 Y101.749 E98.59436
G1 X70.951 Y101.244 E98.78627
G1 X71.189 Y100.661 E99.01989
G1 X71.258 Y100.53 E99.07482
G1 X71.543 Y100.014 E99.29352
G1 X73.755 Y96.122 E100.95436
G1 X74.105 Y95.526 E101.21079
G1 X74.401 Y95.101 E101.40294
G1 X74.845 Y94.653 E101.63694
G1 X75.346 Y94.245 E101.87665
G0 F5400 X81.604 Y108.007
;TYPE:SUPPORT
G1 F1800 X81.751 Y108.25 E101.98202
G1 X81.757 Y108.314 E102.00587
G1 X81.604 Y108.007 E102.13312
G10
G0 F5400 X87.753 Y106.663
G0 X94.52 Y105.186
G11
G1 F1800 X94.672 Y105.495 E102.26088
G1 X94.597 Y105.426 E102.29869
G1 X94.52 Y105.186 E102.3922
G0 F5400 X105.534 Y85.036
G1 F1800 X105.471 Y84.846 E102.46647
G1 X105.471 Y84.725 E102.51136
G1 X105.543 Y84.973 E102.60716
G1 X105.534 Y85.036 E102.63077
G10
G0 F5400 X111.742 Y84.929
G0 X118.674 Y84.811
G11
G1 F1800 X118.681 Y84.754 E102.65208
G1 X118.744 Y84.944 E102.72634
G1 X118.744 Y85.074 E102.77457
G1 X118.674 Y84.811 E102.87554
G0 F5400 X128.377 Y104.993
G1 F1800 X128.39 Y105.284 E102.98361
G1 X128.369 Y105.337 E103.00476
G1 X128.347 Y105.123 E103.08457
G1 X128.377 Y104.993 E103.13407
G10
G0 F5400 X134.483 Y106.441
G0 X141.215 Y108.04
G11
G1 F1800 X141.237 Y107.987 E103.15536
G1 X141.258 Y108.199 E103.2344
G1 X141.228 Y108.327 E103.28317
G1 X141.215 Y108.04 E103.38976
G0 F5400 X122.775 Y133.838
G1 F1800 X122.687 Y134.088 E103.48809
G1 X122.649 Y134.129 E103.50883
G1 X122.713 Y133.927 E103.58744
G1 X122.775 Y133.838 E103.62768
G10
G0 F5400 X127.926 Y137.423
G0 X133.615 Y141.384
G11
G1 F1800 X133.574 Y141.564 E103.69617
G1 X133.52 Y141.643 E103.73167
G1 X133.615 Y141.384 E103.83402
G0 F5400 X99.93 Y134.113
G1 F1800 X99.646 Y133.908 E103.96397
G1 X99.607 Y133.847 E103.99083
G1 X99.691 Y133.878 E104.02405
G1 X99.93 Y134.113 E104.1484
G10
G0 F5400 X94.908 Y138.001
G0 X89.506 Y142.186
G11
G1 F1800 X89.54 Y142.244 E104.17334
G1 X89.457 Y142.213 E104.20621
G1 X89.217 Y141.977 E104.33109
G1 X89.506 Y142.186 E104.46341
G10
;MESH:RobRing.stl
G0 F5400 X88.914 Y144.218
G0 X89.044 Y144.964
;TYPE:WALL-INNER
G11
G1 F1800 X89.631 Y145.01 E104.68185
G1 X90.218 Y144.944 E104.901
G1 X90.786 Y144.755 E105.12309
G1 X91.303 Y144.45 E105.34579
G1 X91.74 Y144.051 E105.56533
G1 X92.113 Y143.522 E105.80547
G1 X92.358 Y142.835 E106.07607
G1 X92.427 Y142.258 E106.29166
G1 X92.404 Y141.78 E106.4692
G1 X92.271 Y141.223 E106.68166
G1 X92.036 Y140.704 E106.89303
G1 X91.715 Y140.239 E107.10266
G1 X91.322 Y139.844 E107.30938
G1 X90.866 Y139.519 E107.51713
G1 X90.357 Y139.279 E107.7259
G1 X89.819 Y139.132 E107.93282
G1 X89.252 Y139.082 E108.14399
G1 X88.673 Y139.142 E108.35995
G1 X88.107 Y139.319 E108.57996
G1 X87.581 Y139.616 E108.80407
G1 X87.125 Y140.027 E109.03182
G1 X86.77 Y140.532 E109.26084
G1 X86.54 Y141.095 E109.48647
G1 X86.435 Y141.687 E109.70953
G1 X86.457 Y142.281 E109.93005
G1 X86.592 Y142.846 E110.14557
G1 X86.829 Y143.368 E110.35826
G1 X87.177 Y143.87 E110.58487
G1 X87.905 Y144.508 E110.944
G1 X88.478 Y144.8 E111.1826
G1 X89.044 Y144.964 E111.40122
G0 F5400 X90.908 Y143.916
G0 X94.212 Y140.889
G1 F1800 X94.906 Y140.893 E111.6587
G1 X95.67 Y140.683 E111.95265
G1 X96.368 Y140.269 E112.25374
G1 X96.919 Y139.678 E112.55351
G1 X97.283 Y138.964 E112.85084
G1 X97.441 Y138.185 E113.14573
G1 X97.381 Y137.391 E113.44115
G1 X97.16 Y136.751 E113.69234
G1 X96.726 Y136.083 E113.98789
G1 X95.977 Y135.468 E114.34743
G1 X95.118 Y135.163 E114.68562
G1 X94.551 Y135.107 E114.897
G1 X93.796 Y135.194 E115.17896
G1 X93.039 Y135.519 E115.48459
G1 X92.411 Y136.028 E115.7845
G1 X91.957 Y136.683 E116.08017
G1 X91.69 Y137.444 E116.37937
G1 X91.648 Y138.231 E116.67177
G1 X91.779 Y138.911 E116.92868
G1 X92.177 Y139.696 E117.25521
G1 X92.669 Y140.23 E117.52459
G1 X93.439 Y140.698 E117.85889
G1 X94.212 Y140.889 E118.1543
G0 F5400 X95.618 Y139.966
G0 X99.375 Y136.97
G1 F1800 X100.205 Y136.986 E118.46229
G1 X101.002 Y136.792 E118.76661
G1 X101.567 Y136.474 E119.00714
G1 X102.023 Y136.063 E119.23489
G1 X102.378 Y135.558 E119.46391
G1 X102.608 Y134.996 E119.6892
G1 X102.713 Y134.402 E119.91299
G1 X102.691 Y133.809 E120.13314
G1 X102.556 Y133.245 E120.3483
G1 X102.319 Y132.725 E120.56031
G1 X101.973 Y132.222 E120.78681
G1 X101.242 Y131.58 E121.14775
G1 X100.664 Y131.288 E121.388
G1 X100.105 Y131.129 E121.60362
G1 X99.519 Y131.08 E121.82178
G1 X98.931 Y131.147 E122.04134
G1 X98.364 Y131.335 E122.26296
G1 X97.845 Y131.64 E122.4863
G1 X97.405 Y132.043 E122.70766
G1 X97.034 Y132.572 E122.94737
G1 X96.79 Y133.255 E123.21645
G1 X96.721 Y133.832 E123.43204
G1 X96.744 Y134.31 E123.60959
G1 X96.877 Y134.868 E123.8224
G1 X97.114 Y135.39 E124.03509
G1 X97.434 Y135.852 E124.24359
G1 X97.826 Y136.246 E124.44979
G1 X98.282 Y136.571 E124.65754
G1 X98.791 Y136.811 E124.86631
G1 X99.375 Y136.97 E125.09087
G0 F5400 X101.052 Y149.19
G1 F1800 X96.277 Y150.859 E126.96749
G1 X91.253 Y150.575 E128.83437
G1 X86.731 Y148.388 E130.69793
G1 X83.403 Y144.626 E132.56138
G1 X81.778 Y139.864 E134.42812
G1 X82.097 Y134.815 E136.30503
G1 X84.318 Y130.263 E138.18412
G1 X88.103 Y126.896 E140.06355
G1 X92.879 Y125.227 E141.94052
G1 X97.902 Y125.511 E143.80703
G1 X102.42 Y127.699 E145.66943
G1 X105.752 Y131.465 E147.53497
G1 X107.377 Y136.221 E149.3996
G1 X107.059 Y141.27 E151.27649
G1 X104.838 Y145.823 E153.15591
G1 X101.052 Y149.19 E155.03562
G0 F5400 X101.413 Y149.806
G1 F1800 X96.377 Y151.566 E157.01479
G1 X91.074 Y151.266 E158.98535
G1 X86.3 Y148.957 E160.95279
G1 X82.787 Y144.986 E162.91979
G1 X81.07 Y139.956 E164.89165
G1 X81.407 Y134.634 E166.87006
G1 X83.749 Y129.832 E168.85219
G1 X87.742 Y126.28 E170.8349
G1 X92.779 Y124.52 E172.81442
G1 X98.081 Y124.82 E174.78461
G1 X102.851 Y127.13 E176.75087
G1 X106.368 Y131.105 E178.71997
G1 X108.085 Y136.128 E180.68937
G1 X107.749 Y141.451 E182.66813
G1 X105.407 Y146.254 E184.6506
G1 X101.413 Y149.806 E186.63358
G0 F5400 X101.363 Y149.72
G0 X94.287 Y140.288
G0 X94.299 Y140.189
G1 F1800 X94.814 Y140.192 E186.82465
G1 X95.394 Y140.033 E187.04777
G1 X95.924 Y139.718 E187.27651
G1 X96.34 Y139.272 E187.50278
G1 X96.616 Y138.731 E187.7281
G1 X96.736 Y138.141 E187.95147
G1 X96.69 Y137.534 E188.17731
G1 X96.526 Y137.061 E188.36305
G1 X96.198 Y136.555 E188.58676
G1 X95.627 Y136.087 E188.86067
G1 X94.964 Y135.851 E189.12176
G1 X94.557 Y135.811 E189.27348
G1 X93.978 Y135.878 E189.48972
G1 X93.404 Y136.124 E189.72141
G1 X92.929 Y136.509 E189.94825
G1 X92.586 Y137.004 E190.17168
G1 X92.384 Y137.581 E190.39848
G1 X92.352 Y138.183 E190.62214
G1 X92.448 Y138.682 E190.81067
G1 X92.758 Y139.293 E191.06485
G1 X93.117 Y139.683 E191.26151
G1 X93.711 Y140.044 E191.51939
G1 X94.299 Y140.189 E191.74408
G0 F5400 X94.287 Y140.288
G0 X95.846 Y139.81
G0 X99.461 Y136.37
G0 X99.475 Y136.272
G1 F1800 X100.128 Y136.284 E191.98638
G1 X100.743 Y136.135 E192.22115
G1 X101.156 Y135.902 E192.39707
G1 X101.496 Y135.596 E192.56677
G1 X101.76 Y135.22 E192.73722
G1 X101.932 Y134.8 E192.9056
G1 X102.011 Y134.354 E193.07364
G1 X101.994 Y133.904 E193.24071
G1 X101.891 Y133.473 E193.40512
G1 X101.708 Y133.071 E193.56898
G1 X101.446 Y132.691 E193.74023
G1 X100.847 Y132.165 E194.03597
G1 X100.408 Y131.943 E194.21848
G1 X99.979 Y131.821 E194.38395
G1 X99.529 Y131.783 E194.5515
G1 X99.083 Y131.834 E194.71804
G1 X98.655 Y131.976 E194.88534
G1 X98.263 Y132.206 E195.05396
G1 X97.934 Y132.507 E195.21939
G1 X97.662 Y132.896 E195.39549
G1 X97.476 Y133.417 E195.60073
G1 X97.423 Y133.857 E195.76515
G1 X97.44 Y134.211 E195.89664
G1 X97.542 Y134.64 E196.06023
G1 X97.725 Y135.043 E196.22444
G1 X97.974 Y135.402 E196.38653
G1 X98.281 Y135.711 E196.54813
G1 X98.637 Y135.965 E196.71038
G1 X99.034 Y136.152 E196.87319
G1 X99.475 Y136.272 E197.04275
G0 F5400 X99.461 Y136.37
G0 X95.949 Y139.749
G0 X90.908 Y143.916
G0 X89.153 Y144.37
G0 X89.17 Y144.272
G1 F1800 X89.619 Y144.307 E197.20983
G1 X90.066 Y144.257 E197.3767
G1 X90.494 Y144.114 E197.54412
G1 X90.885 Y143.884 E197.71242
G1 X91.212 Y143.585 E197.8768
G1 X91.486 Y143.197 E198.05303
G1 X91.672 Y142.674 E198.25896
G1 X91.725 Y142.233 E198.42375
G1 X91.708 Y141.879 E198.55524
G1 X91.606 Y141.451 E198.71847
G1 X91.424 Y141.05 E198.88185
G1 X91.174 Y140.688 E199.04507
G1 X90.867 Y140.379 E199.20667
G1 X90.511 Y140.125 E199.36891
G1 X90.114 Y139.938 E199.53172
G1 X89.695 Y139.824 E199.69282
G1 X89.257 Y139.785 E199.85596
G1 X88.815 Y139.831 E200.02083
G1 X88.387 Y139.965 E200.18722
G1 X87.992 Y140.188 E200.3555
G1 X87.652 Y140.494 E200.52521
G1 X87.388 Y140.87 E200.69566
G1 X87.216 Y141.291 E200.86438
G1 X87.137 Y141.736 E201.03206
G1 X87.154 Y142.186 E201.19912
G1 X87.257 Y142.618 E201.36389
G1 X87.44 Y143.021 E201.5281
G1 X87.703 Y143.4 E201.69924
G1 X88.301 Y143.924 E201.99422
G1 X88.737 Y144.146 E202.17574
G1 X89.17 Y144.272 E202.34305
G0 F5400 X89.287 Y143.629
;TYPE:WALL-OUTER
G1 F1800 X89.608 Y143.654 E202.4625
G1 X89.925 Y143.619 E202.58082
G1 X90.223 Y143.519 E202.69744
G1 X90.497 Y143.358 E202.81534
G1 X90.721 Y143.153 E202.92799
G1 X90.903 Y142.895 E203.04513
G1 X91.035 Y142.524 E203.19122
G1 X91.073 Y142.209 E203.30894
G1 X91.062 Y141.971 E203.39733
G1 X90.988 Y141.663 E203.51485
G1 X90.856 Y141.371 E203.63374
G1 X90.672 Y141.105 E203.75373
G1 X90.445 Y140.876 E203.87336
G1 X90.181 Y140.688 E203.9936
G1 X89.888 Y140.55 E204.11375
G1 X89.58 Y140.466 E204.2322
G1 X89.262 Y140.438 E204.35063
G1 X88.947 Y140.471 E204.46814
G1 X88.647 Y140.565 E204.58477
G1 X88.374 Y140.719 E204.70106
G1 X88.142 Y140.928 E204.81691
G1 X87.962 Y141.184 E204.93301
G1 X87.844 Y141.473 E205.04882
G1 X87.789 Y141.781 E205.1649
G1 X87.801 Y142.097 E205.28222
G1 X87.875 Y142.406 E205.4001
G1 X88.008 Y142.699 E205.51948
G1 X88.192 Y142.964 E205.63917
G1 X88.668 Y143.382 E205.87419
G1 X88.977 Y143.539 E206.00278
G1 X89.287 Y143.629 E206.12253
G0 F5400 X89.608 Y143.654
G0 X89.686 Y143.646
G0 X89.769 Y144.391
G0 X94.2 Y140.267
G0 X94.379 Y139.539
G1 F1800 X94.728 Y139.541 E206.25202
G1 X95.137 Y139.429 E206.40934
G1 X95.512 Y139.206 E206.57121
G1 X95.803 Y138.895 E206.72922
G1 X95.997 Y138.515 E206.88751
G1 X96.081 Y138.1 E207.0446
G1 X96.048 Y137.667 E207.20571
G1 X95.938 Y137.348 E207.33089
G1 X95.708 Y136.994 E207.48751
G1 X95.302 Y136.661 E207.68232
G1 X94.822 Y136.49 E207.87137
G1 X94.563 Y136.465 E207.9679
G1 X94.147 Y136.513 E208.12326
G1 X93.743 Y136.686 E208.28631
G1 X93.41 Y136.956 E208.44536
G1 X93.17 Y137.302 E208.60158
G1 X93.028 Y137.708 E208.76116
G1 X93.005 Y138.138 E208.92092
G1 X93.069 Y138.469 E209.04599
G1 X93.297 Y138.919 E209.23315
G1 X93.533 Y139.175 E209.36232
G1 X93.963 Y139.437 E209.54913
G1 X94.379 Y139.539 E209.70804
G0 F5400 X94.728 Y139.541
G0 X94.777 Y139.528
G0 X94.974 Y140.252
G0 X99.371 Y136.346
G0 X99.568 Y135.624
G1 F1800 X100.056 Y135.633 E209.88912
