;FLAVOR:UltiGCode
;TIME:3181
;MATERIAL:8918
;MATERIAL2:0
;NOZZLE_DIAMETER:0.8
;MINX:88.867
;MINY:75.191
;MINZ:0.53
;MAXX:134.299
;MAXY:148.907
;MAXZ:25.73
;Generated with Cura_SteamEngine 4.11.0
M82 ;absolute extrusion mode
G0 F3000 Y50 ;avoid prime blob
G92 E0
G92 E0
G10
;LAYER_COUNT:127
;LAYER:0
M107
G0 F5400 X91.967 Y78.599 Z0.53
;TYPE:SKIRT
G11
G1 F1800 X92.35 Y78.205 E0.20386
G1 X92.512 Y78.061 E0.28427
G1 X92.916 Y77.719 E0.48065
G1 X93.556 Y77.207 E0.78472
G1 X94.122 Y76.828 E1.03743
G1 X94.77 Y76.471 E1.31191
G1 X95.383 Y76.152 E1.56829
G1 X96.024 Y75.886 E1.82576
G1 X96.696 Y75.672 E2.08741
G1 X97.414 Y75.465 E2.36464
G1 X97.976 Y75.346 E2.57776
G1 X98.651 Y75.266 E2.82994
G1 X99.489 Y75.192 E3.14205
G1 X100.182 Y75.191 E3.39915
G1 X100.855 Y75.248 E3.64973
G1 X101.357 Y75.303 E3.83708
G1 X104.138 Y75.577 E4.87383
G1 X106.832 Y75.765 E5.87574
G1 X109.505 Y75.876 E6.86827
G1 X112.244 Y75.913 E7.88453
G1 X114.983 Y75.873 E8.90081
G1 X117.648 Y75.758 E9.89045
G1 X120.93 Y75.502 E11.11177
G1 X122.337 Y75.387 E11.63551
G1 X123.035 Y75.389 E11.89446
G1 X123.786 Y75.455 E12.17416
G1 X124.435 Y75.527 E12.41642
G1 X125.139 Y75.669 E12.68286
G1 X125.889 Y75.892 E12.97315
G1 X126.464 Y76.073 E13.19679
G1 X127.113 Y76.341 E13.45729
G1 X127.807 Y76.702 E13.74752
G1 X128.36 Y77.005 E13.98146
G1 X128.934 Y77.387 E14.23726
G1 X129.58 Y77.902 E14.54377
G1 X130.046 Y78.296 E14.77017
G1 X130.424 Y78.66 E14.96485
G1 X130.586 Y78.84 E15.0547
G1 X130.949 Y79.271 E15.26375
G1 X131.45 Y79.898 E15.56151
G1 X131.787 Y80.39 E15.78276
G1 X132.098 Y80.95 E16.02041
G1 X132.227 Y81.193 E16.12247
G1 X132.482 Y81.698 E16.33236
G1 X132.714 Y82.257 E16.5569
G1 X132.999 Y83.122 E16.89479
G1 X133.17 Y83.694 E17.11628
G1 X133.309 Y84.381 E17.37632
G1 X133.391 Y85.1 E17.6448
G1 X133.453 Y85.829 E17.91623
G1 X133.457 Y86.447 E18.14552
G1 X133.263 Y89.208 E19.17237
G1 X133.15 Y91.883 E20.16568
G1 X133.112 Y94.62 E21.18121
G1 X133.152 Y97.363 E22.19897
G1 X133.265 Y100.026 E23.18783
G1 X133.46 Y102.765 E24.20657
G1 X133.729 Y105.47 E25.21508
G1 X134.014 Y107.737 E26.06275
G1 X134.151 Y108.736 E26.43685
G1 X134.232 Y109.493 E26.7193
G1 X134.298 Y110.244 E26.999
G1 X134.299 Y110.944 E27.2587
G1 X134.219 Y111.864 E27.60131
G1 X134.132 Y112.633 E27.88842
G1 X134.116 Y112.757 E27.93481
G1 X133.962 Y113.826 E28.3355
G1 X133.826 Y114.69 E28.65999
G1 X133.48 Y117.367 E29.66142
G1 X133.207 Y120.078 E30.67229
G1 X133.011 Y122.804 E31.68625
G1 X132.894 Y125.47 E32.67628
G1 X132.852 Y128.202 E33.68998
G1 X132.887 Y130.918 E34.6977
G1 X132.999 Y133.652 E35.71286
G1 X133.191 Y136.395 E36.733
G1 X133.274 Y137.375 E37.09789
G1 X133.28 Y137.966 E37.31716
G1 X133.215 Y138.805 E37.62936
G1 X133.119 Y139.621 E37.93418
G1 X133.021 Y140.146 E38.13232
G1 X132.935 Y140.474 E38.25812
G1 X132.768 Y141.044 E38.47848
G1 X132.574 Y141.653 E38.71561
G1 X132.348 Y142.214 E38.93999
G1 X131.978 Y142.935 E39.24065
G1 X131.862 Y143.157 E39.33358
G1 X131.589 Y143.65 E39.54265
G1 X131.264 Y144.147 E39.76296
G1 X130.714 Y144.848 E40.09353
G1 X130.259 Y145.388 E40.3555
G1 X129.857 Y145.8 E40.56906
G1 X129.659 Y145.975 E40.6671
G1 X129.142 Y146.407 E40.91705
G1 X128.6 Y146.838 E41.17396
G1 X128.123 Y147.165 E41.38852
G1 X127.96 Y147.258 E41.45814
G1 X127.417 Y147.556 E41.68794
G1 X126.655 Y147.95 E42.0062
G1 X126.069 Y148.188 E42.24085
G1 X125.423 Y148.393 E42.49229
G1 X124.937 Y148.533 E42.67993
G1 X124.747 Y148.591 E42.75363
G1 X124.035 Y148.74 E43.02351
G1 X123.009 Y148.86 E43.40675
G1 X122.419 Y148.906 E43.6263
G1 X121.844 Y148.907 E43.83963
G1 X121.326 Y148.87 E44.0323
G1 X118.545 Y148.606 E45.06868
G1 X115.817 Y148.422 E46.08307
G1 X113.114 Y148.315 E47.08667
G1 X110.374 Y148.286 E48.10327
G1 X107.704 Y148.333 E49.09399
G1 X104.965 Y148.458 E50.11122
G1 X101.288 Y148.749 E51.47965
G1 X101.098 Y148.767 E51.55046
G1 X100.377 Y148.827 E51.81887
G1 X99.698 Y148.826 E52.07078
G1 X98.993 Y148.766 E52.33328
G1 X98.872 Y148.754 E52.37839
G1 X98.187 Y148.675 E52.63421
G1 X97.656 Y148.578 E52.83447
G1 X97.447 Y148.522 E52.91475
G1 X96.706 Y148.305 E53.2012
G1 X96.081 Y148.106 E53.44455
G1 X95.541 Y147.892 E53.66005
G1 X94.941 Y147.595 E53.90843
G1 X94.2 Y147.209 E54.2184
G1 X93.509 Y146.753 E54.52555
G1 X92.859 Y146.222 E54.83694
G1 X92.722 Y146.105 E54.90378
G1 X92.288 Y145.717 E55.11976
G1 X91.882 Y145.298 E55.33621
G1 X91.404 Y144.727 E55.61248
G1 X90.974 Y144.195 E55.86626
G1 X90.582 Y143.613 E56.1266
G1 X90.169 Y142.868 E56.44262
G1 X89.845 Y142.242 E56.70413
G1 X89.622 Y141.723 E56.9137
G1 X89.552 Y141.516 E56.99477
G1 X89.342 Y140.844 E57.25597
G1 X89.147 Y140.167 E57.51735
G1 X89.014 Y139.495 E57.7715
G1 X88.928 Y138.714 E58.063
G1 X88.868 Y138.021 E58.32107
G1 X88.867 Y137.341 E58.57335
G1 X88.941 Y136.451 E58.90468
G1 X89.142 Y134.66 E59.57331
G1 X89.408 Y131.94 E60.58724
G1 X89.593 Y129.274 E61.57871
G1 X89.706 Y126.537 E62.595
G1 X89.74 Y123.821 E63.60271
G1 X89.698 Y121.093 E64.61492
G1 X89.58 Y118.422 E65.60683
G1 X89.382 Y115.659 E66.63453
G1 X89.153 Y113.349 E67.49574
G1 X89.065 Y112.559 E67.79064
G1 X89.044 Y112.33 E67.87596
G1 X88.989 Y111.655 E68.12721
G1 X88.983 Y111.081 E68.34018
G1 X89.032 Y110.441 E68.57831
G1 X89.079 Y109.955 E68.75946
G1 X89.197 Y108.882 E69.15995
G1 X89.454 Y106.204 E70.15805
G1 X89.639 Y103.468 E71.17542
G1 X89.745 Y100.767 E72.17826
G1 X89.774 Y98.025 E73.1956
G1 X89.727 Y95.357 E74.18558
G1 X89.601 Y92.615 E75.20394
G1 X89.402 Y89.926 E76.20429
G1 X89.165 Y87.573 E77.08167
G1 X89.103 Y86.996 E77.29697
G1 X89.048 Y86.322 E77.54785
G1 X89.041 Y85.766 E77.75414
G1 X89.055 Y85.55 E77.83445
G1 X89.112 Y84.916 E78.07061
G1 X89.19 Y84.221 E78.33007
G1 X89.298 Y83.642 E78.54859
G1 X89.356 Y83.43 E78.63013
G1 X89.53 Y82.833 E78.86083
G1 X89.742 Y82.168 E79.11978
G1 X89.938 Y81.67 E79.31833
G1 X90.024 Y81.493 E79.39134
G1 X90.311 Y80.935 E79.62414
G1 X90.377 Y80.812 E79.67593
G1 X90.687 Y80.257 E79.91177
G1 X91.006 Y79.772 E80.12714
G1 X91.117 Y79.629 E80.1943
G1 X91.533 Y79.112 E80.44049
G1 X91.967 Y78.599 E80.68979
G0 F5400 X92.501 Y79.051
G1 F1800 X92.888 Y78.662 E80.89336
G1 X93.369 Y78.253 E81.1276
G1 X93.444 Y78.191 E81.1637
G1 X93.992 Y77.754 E81.42374
G1 X94.46 Y77.441 E81.63262
G1 X95.094 Y77.092 E81.90112
G1 X95.707 Y76.773 E82.15749
G1 X96.236 Y76.553 E82.37005
G1 X97.003 Y76.31 E82.66854
G1 X97.607 Y76.137 E82.90164
G1 X98.216 Y76.019 E83.13178
G1 X98.727 Y75.962 E83.32254
G1 X99.55 Y75.89 E83.62904
G1 X100.123 Y75.889 E83.84162
G1 X100.885 Y75.955 E84.12538
G1 X101.288 Y76 E84.27582
G1 X104.055 Y76.272 E85.30733
G1 X106.789 Y76.463 E86.32411
G1 X109.502 Y76.576 E87.33151
G1 X112.245 Y76.613 E88.34925
G1 X114.99 Y76.573 E89.36776
G1 X117.702 Y76.456 E90.37485
G1 X120.984 Y76.2 E91.59617
G1 X122.394 Y76.085 E92.12101
G1 X122.975 Y76.086 E92.33656
G1 X123.708 Y76.15 E92.60954
G1 X124.357 Y76.222 E92.8518
G1 X124.94 Y76.34 E93.07248
G1 X125.679 Y76.56 E93.35854
G1 X126.254 Y76.741 E93.58218
G1 X126.791 Y76.962 E93.79762
G1 X127.471 Y77.316 E94.08204
G1 X128.024 Y77.619 E94.31598
G1 X128.499 Y77.935 E94.52764
G1 X129.128 Y78.437 E94.82621
G1 X129.594 Y78.831 E95.05261
G1 X130.05 Y79.291 E95.29291
G1 X130.47 Y79.791 E95.53517
G1 X130.903 Y80.334 E95.79283
G1 X131.229 Y80.823 E96.01087
G1 X131.51 Y81.333 E96.2269
G1 X131.602 Y81.509 E96.30058
G1 X131.857 Y82.014 E96.51046
G1 X132.049 Y82.476 E96.69608
G1 X132.334 Y83.341 E97.03396
G1 X132.498 Y83.892 E97.24725
G1 X132.613 Y84.46 E97.46225
G1 X132.706 Y85.283 E97.76953
G1 X132.756 Y85.887 E97.99438
G1 X132.759 Y86.398 E98.18396
G1 X132.565 Y89.166 E99.21341
G1 X132.449 Y91.879 E100.22085
G1 X132.412 Y94.62 E101.23785
G1 X132.452 Y97.368 E102.25747
G1 X132.566 Y100.071 E103.26117
G1 X132.762 Y102.811 E104.28031
G1 X133.034 Y105.549 E105.30111
G1 X133.321 Y107.832 E106.15477
G1 X133.455 Y108.814 E106.52247
G1 X133.535 Y109.563 E106.80193
G1 X133.601 Y110.305 E107.0783
G1 X133.602 Y110.885 E107.29348
G1 X133.524 Y111.786 E107.629
G1 X133.424 Y112.657 E107.95426
G1 X133.27 Y113.717 E108.35165
G1 X133.131 Y114.595 E108.68144
G1 X132.784 Y117.285 E109.6877
G1 X132.508 Y120.024 E110.70902
G1 X132.314 Y122.723 E111.71293
G1 X132.194 Y125.465 E112.73119
G1 X132.152 Y128.202 E113.74673
G1 X132.188 Y130.957 E114.76893
G1 X132.299 Y133.66 E115.77258
G1 X132.496 Y136.488 E116.82431
G1 X132.576 Y137.434 E117.17653
G1 X132.562 Y138.248 E117.47857
G1 X132.508 Y138.834 E117.6969
G1 X132.424 Y139.537 E117.95957
G1 X132.293 Y140.167 E118.1983
G1 X132.263 Y140.277 E118.2406
G1 X132.072 Y140.924 E118.49087
G1 X131.907 Y141.441 E118.69221
G1 X131.571 Y142.206 E119.0022
G1 X131.25 Y142.818 E119.25859
G1 X130.977 Y143.311 E119.46766
G1 X130.491 Y144.006 E119.78229
G1 X130.168 Y144.409 E119.9739
G1 X129.724 Y144.936 E120.22956
G1 X129.283 Y145.375 E120.46042
G1 X128.706 Y145.859 E120.73982
G1 X128.164 Y146.29 E120.99673
G1 X127.692 Y146.605 E121.20726
G1 X127.173 Y146.893 E121.42747
G1 X126.42 Y147.285 E121.74242
G1 X126.342 Y147.324 E121.77477
G1 X125.857 Y147.521 E121.96898
G1 X125.211 Y147.726 E122.22043
G1 X124.715 Y147.868 E122.41184
G1 X124.543 Y147.921 E122.47861
G1 X123.954 Y148.044 E122.70184
G1 X122.928 Y148.164 E123.08508
G1 X122.369 Y148.208 E123.29311
G1 X121.477 Y148.18 E123.62421
G1 X118.584 Y147.907 E124.70228
G1 X115.856 Y147.722 E125.71669
G1 X113.148 Y147.616 E126.72213
G1 X110.37 Y147.586 E127.75283
G1 X107.696 Y147.633 E128.74504
G1 X104.936 Y147.759 E129.77006
G1 X101.167 Y148.057 E131.17273
G1 X100.319 Y148.129 E131.48847
G1 X99.757 Y148.129 E131.69697
G1 X98.952 Y148.059 E131.99675
G1 X98.267 Y147.98 E132.25257
G1 X97.757 Y147.881 E132.44531
G1 X97.643 Y147.85 E132.48914
G1 X96.919 Y147.638 E132.76902
G1 X96.294 Y147.439 E133.01237
G1 X95.704 Y147.193 E133.24952
G1 X95.264 Y146.974 E133.43186
G1 X94.523 Y146.588 E133.74184
G1 X93.952 Y146.211 E133.99569
G1 X93.302 Y145.68 E134.30708
G1 X93.188 Y145.583 E134.36261
G1 X92.754 Y145.195 E134.57859
G1 X92.419 Y144.849 E134.75726
G1 X91.949 Y144.287 E135.02907
G1 X91.519 Y143.755 E135.28285
G1 X91.194 Y143.273 E135.49852
G1 X90.732 Y142.437 E135.85289
G1 X90.467 Y141.922 E136.06777
G1 X90.253 Y141.406 E136.27501
G1 X90.038 Y140.726 E136.5396
G1 X89.82 Y139.973 E136.83044
G1 X89.71 Y139.418 E137.04035
G1 X89.625 Y138.654 E137.32554
G1 X89.565 Y137.961 E137.5836
G1 X89.564 Y137.398 E137.79248
G1 X89.627 Y136.629 E138.07873
G1 X89.838 Y134.738 E138.78465
G1 X90.104 Y132.019 E139.79821
G1 X90.294 Y129.282 E140.81608
G1 X90.405 Y126.575 E141.82122
G1 X90.44 Y123.821 E142.84304
G1 X90.398 Y121.086 E143.85785
G1 X90.277 Y118.34 E144.8776
G1 X90.084 Y115.658 E145.87519
G1 X89.844 Y113.229 E146.78074
G1 X89.762 Y112.494 E147.05512
G1 X89.742 Y112.273 E147.13744
G1 X89.687 Y111.598 E147.3887
G1 X89.692 Y110.958 E147.62615
G1 X89.734 Y110.455 E147.81341
G1 X89.775 Y110.032 E147.97108
G1 X89.888 Y109.001 E148.35587
G1 X90.156 Y106.213 E149.39499
G1 X90.339 Y103.506 E150.40157
G1 X90.444 Y100.803 E151.40514
G1 X90.474 Y98.021 E152.43733
G1 X90.427 Y95.313 E153.44215
G1 X90.302 Y92.604 E154.44825
G1 X90.097 Y89.84 E155.47651
G1 X89.862 Y87.503 E156.34791
G1 X89.801 Y86.939 E156.55838
G1 X89.746 Y86.265 E156.80926
G1 X89.745 Y85.716 E157.01294
G1 X89.8 Y85.075 E157.25163
G1 X89.886 Y84.299 E157.54129
G1 X90.005 Y83.706 E157.76567
G1 X90.197 Y83.045 E158.02104
G1 X90.409 Y82.38 E158.27999
G1 X90.596 Y81.916 E158.46559
G1 X90.647 Y81.813 E158.50823
G1 X90.988 Y81.153 E158.78384
G1 X91.298 Y80.598 E159.01969
G1 X91.614 Y80.129 E159.2295
G1 X92.067 Y79.564 E159.49817
G1 X92.501 Y79.051 E159.74746
G0 F5400 X99.815 Y82.861
;TYPE:SUPPORT
G1 F1800 X99.972 Y82.876 E159.80598
G1 X99.958 Y83.056 E159.87296
G1 X99.879 Y83.078 E159.90338
G1 X99.793 Y82.998 E159.94696
G1 X99.815 Y82.861 E159.99844
G0 F5400 X120.108 Y85.693
G1 F1800 X120.274 Y85.183 E160.19742
G1 X120.557 Y84.66 E160.41803
G1 X120.833 Y84.333 E160.57679
G1 X121.234 Y84.008 E160.76829
G1 X121.662 Y83.777 E160.94872
G1 X122.183 Y83.615 E161.15114
G1 X122.689 Y83.566 E161.33975
G1 X123.226 Y83.629 E161.54034
G1 X123.663 Y83.763 E161.70992
G1 X124.125 Y84.015 E161.90516
G1 X124.519 Y84.344 E162.0956
G1 X124.85 Y84.744 E162.28822
G1 X125.083 Y85.21 E162.48151
G1 X125.212 Y85.641 E162.64842
G1 X125.263 Y86.201 E162.85704
G1 X125.216 Y86.68 E163.0356
G1 X125.045 Y87.222 E163.24645
G1 X124.839 Y87.603 E163.40714
G1 X124.487 Y88.023 E163.61045
G1 X124.06 Y88.35 E163.80998
G1 X123.662 Y88.566 E163.97799
G1 X123.113 Y88.724 E164.18993
G1 X122.604 Y88.762 E164.3793
G1 X122.172 Y88.715 E164.54051
G1 X121.685 Y88.566 E164.72946
G1 X121.205 Y88.298 E164.93342
G1 X120.674 Y87.87 E165.18644
G1 X120.557 Y87.716 E165.2582
G1 X120.284 Y87.177 E165.48235
G1 X120.13 Y86.689 E165.6722
G1 X120.069 Y86.065 E165.90481
G1 X120.108 Y85.693 E166.04358
G0 F5400 X121.342 Y84.28
G1 F1800 X121.342 Y88.048 E167.44151
G0 F5400 X121.865 Y84.006
G1 F1800 X123.504 Y84.006 E168.04957
G0 F5400 X100.767 Y136.479
G1 F1800 X100.767 Y139.565 E169.19448
G1 X100.496 Y139.432 E169.30648
G1 X99.636 Y139.432 E169.62554
G1 X99.325 Y139.585 E169.75412
G1 X99.325 Y136.461 E170.91313
G1 X99.639 Y136.623 E171.04421
G1 X100.511 Y136.616 E171.36774
G1 X100.767 Y136.479 E171.47546
G10
;MESH:ringfinger3.stl
G0 F5400 X97.275 Y136.479
G0 X97.188 Y141.904
G11
G0 X97.275 Y141.855
;TYPE:WALL-INNER
G1 F1800 X98.137 Y142.372 E171.84837
G1 X98.825 Y142.481 E172.1068
G1 X99.477 Y142.515 E172.34902
G1 X100.026 Y142.556 E172.55327
G1 X100.807 Y142.516 E172.8434
G1 X101.265 Y142.48 E173.01384
G1 X102.196 Y142.326 E173.36393
G1 X102.817 Y141.811 E173.66324
G1 X102.817 Y133.889 E176.6023
G1 X102.068 Y132.755 E177.1065
G1 X101.944 Y132.607 E177.17814
G1 X101.842 Y132.487 E177.23657
G1 X101.041 Y132.183 E177.55442
G1 X99.995 Y131.786 E177.9695
G1 X99.506 Y131.993 E178.1665
G1 X99.068 Y132.179 E178.34304
G1 X98.327 Y132.494 E178.64176
G1 X98.263 Y132.575 E178.68006
G1 X97.275 Y133.814 E179.26799
G1 X97.275 Y141.855 E182.2512
G0 F5400 X97.188 Y141.904
G0 X101.214 Y143.53
G0 X101.233 Y143.628
G1 F1800 X100.046 Y143.746 E182.69374
G1 X98.856 Y143.628 E183.1374
G1 X97.701 Y143.279 E183.58504
G1 X97.246 Y143.043 E183.7752
G1 X96.603 Y142.719 E184.04233
G1 X96.364 Y142.515 E184.1589
G1 X95.735 Y141.966 E184.46865
G1 X94.983 Y141.049 E184.90862
G1 X94.962 Y141.026 E184.92018
G1 X94.411 Y139.989 E185.35584
G1 X94.064 Y138.842 E185.80043
G1 X94.03 Y138.486 E185.9331
G1 X93.946 Y137.664 E186.23965
G1 X94.064 Y136.461 E186.68811
G1 X94.41 Y135.319 E187.13081
G1 X94.98 Y134.252 E187.57961
G1 X95.737 Y133.334 E188.02105
G1 X95.998 Y133.114 E188.14769
G1 X96.607 Y132.611 E188.44073
G1 X97.711 Y132.016 E188.90601
G1 X98.043 Y131.916 E189.03465
G1 X98.142 Y131.886 E189.07133
G1 X98.852 Y131.671 E189.30292
G1 X99.347 Y131.62 E189.43988
G1 X99.973 Y131.561 E189.55624
G1 X100.047 Y131.553 E189.58385
G1 X101.235 Y131.671 E189.83987
G1 X102.016 Y131.906 E190.08772
G1 X102.167 Y131.951 E190.14241
G1 X102.366 Y132.012 E190.21963
G1 X103.351 Y132.579 E190.64128
G1 X104.355 Y133.337 E191.108
G1 X105.118 Y134.268 E191.55458
G1 X105.639 Y135.246 E191.96569
G1 X105.786 Y135.67 E192.13218
G1 X106 Y136.385 E192.40907
G1 X106.059 Y136.816 E192.57046
G1 X106.142 Y137.653 E192.88251
G1 X106.026 Y138.839 E193.32462
G1 X105.921 Y139.178 E193.45628
G1 X105.676 Y139.992 E193.77166
G1 X105.103 Y141.058 E194.22066
G1 X104.376 Y141.944 E194.64586
G1 X104.068 Y142.174 E194.78847
G1 X103.487 Y142.649 E195.06689
G1 X102.956 Y142.97 E195.29709
G1 X102.374 Y143.282 E195.54208
G1 X101.233 Y143.628 E195.98443
G0 F5400 X101.36 Y144.269
;TYPE:WALL-OUTER
G1 F1800 X100.046 Y144.399 E196.4743
