;FLAVOR:UltiGCode
;TIME:4268
;MATERIAL:16404
;MATERIAL2:0
;NOZZLE_DIAMETER:0.8
;MINX:65.098
;MINY:80.136
;MINZ:0.53
;MAXX:157.848
;MAXY:144.962
;MAXZ:13.73
;Generated with Cura_SteamEngine 4.11.0
M82 ;absolute extrusion mode
G0 F3000 Y50 ;avoid prime blob
G92 E0
G92 E0
G10
;LAYER_COUNT:67
;LAYER:0
M107
G0 F5400 X70.523 Y105.111 Z0.53
;TYPE:SKIRT
G11
G1 F1800 X97.768 Y81.422 E13.39438
G1 X98.327 Y80.948 E13.66629
G1 X98.747 Y80.645 E13.85842
G1 X99.208 Y80.41 E14.0504
G1 X99.699 Y80.249 E14.2421
G1 X100.433 Y80.154 E14.51668
G1 X101.421 Y80.136 E14.88329
G1 X128.966 Y80.136 E25.10249
G1 X129.666 Y80.146 E25.36222
G1 X130.181 Y80.194 E25.55411
G1 X130.683 Y80.32 E25.74613
G1 X131.159 Y80.521 E25.93782
G1 X131.599 Y80.794 E26.12993
G1 X132.103 Y81.249 E26.38184
G1 X132.656 Y81.862 E26.68813
G1 X153.386 Y105.513 E38.35608
G1 X153.851 Y106.059 E38.62215
G1 X154.155 Y106.477 E38.81391
G1 X154.391 Y106.938 E39.00605
G1 X154.554 Y107.429 E39.19798
G1 X154.646 Y108.039 E39.42685
G1 X154.66 Y108.309 E39.52716
G1 X154.714 Y109.882 E40.11108
G1 X154.884 Y112.59 E41.11773
G1 X155.133 Y115.319 E42.13439
G1 X155.456 Y118.012 E43.14066
G1 X155.866 Y120.774 E44.17659
G1 X156.329 Y123.384 E45.16001
G1 X156.888 Y126.086 E46.18368
G1 X157.753 Y129.683 E47.55622
G1 X157.833 Y130.131 E47.72505
G1 X157.848 Y130.583 E47.89284
G1 X157.809 Y131.691 E48.30416
G1 X157.666 Y134.283 E49.26725
G1 X157.615 Y135.013 E49.53874
G1 X157.539 Y135.525 E49.73078
G1 X157.385 Y136.019 E49.92275
G1 X157.158 Y136.484 E50.11472
G1 X156.971 Y136.766 E50.24026
G1 X156.536 Y137.356 E50.51221
G1 X154.098 Y140.575 E52.01033
G1 X153.676 Y141.115 E52.26459
G1 X153.327 Y141.497 E52.45655
G1 X152.923 Y141.82 E52.64845
G1 X152.419 Y142.118 E52.86567
G1 X152.326 Y142.169 E52.90502
G1 X148.291 Y144.281 E54.59467
G1 X147.671 Y144.593 E54.85217
G1 X147.192 Y144.79 E55.04433
G1 X146.689 Y144.91 E55.23618
G1 X146.215 Y144.951 E55.41269
G1 X145.473 Y144.962 E55.688
G1 X71.172 Y144.962 E83.25367
G1 X70.474 Y144.952 E83.51265
G1 X69.959 Y144.904 E83.70455
G1 X69.457 Y144.778 E83.89657
G1 X68.981 Y144.576 E84.08841
G1 X68.53 Y144.295 E84.28555
G1 X67.849 Y143.791 E84.59986
G1 X66.934 Y143.091 E85.02728
G1 X66.394 Y142.665 E85.28245
G1 X66.014 Y142.314 E85.47437
G1 X65.692 Y141.909 E85.66633
G1 X65.437 Y141.459 E85.85822
G1 X65.254 Y140.976 E86.04984
G1 X65.147 Y140.469 E86.24208
G1 X65.12 Y140.102 E86.37861
G1 X65.098 Y138.986 E86.79273
G1 X65.098 Y131.158 E89.69691
G1 X65.109 Y130.449 E89.95998
G1 X65.157 Y129.934 E90.15188
G1 X65.337 Y129.224 E90.42362
G1 X66.036 Y126.537 E91.45368
G1 X66.652 Y123.864 E92.47135
G1 X67.186 Y121.196 E93.48081
G1 X67.651 Y118.48 E94.50311
G1 X68.029 Y115.824 E95.49841
G1 X68.342 Y113.066 E96.5282
G1 X68.572 Y110.365 E97.5339
G1 X68.678 Y108.491 E98.23026
G1 X68.713 Y108 E98.41289
G1 X68.79 Y107.488 E98.60497
G1 X68.944 Y106.994 E98.79695
G1 X69.173 Y106.53 E98.98892
G1 X69.47 Y106.107 E99.18067
G1 X69.815 Y105.747 E99.36566
G1 X70.523 Y105.111 E99.71874
G10
;MESH:RobCableFront.stl
G0 F5400 X73.181 Y108.168
G0 X75.454 Y111.657
G0 X77.747 Y115.173
;TYPE:WALL-INNER
G11
G1 F1800 X78.57 Y115.253 E100.02552
G1 X79.392 Y115.173 E100.33192
G1 X80.186 Y114.932 E100.63976
G1 X80.916 Y114.542 E100.94682
G1 X81.556 Y114.017 E101.25393
G1 X82.08 Y113.376 E101.56109
G1 X82.47 Y112.647 E101.86782
G1 X82.711 Y111.854 E102.17531
G1 X82.791 Y111.032 E102.48171
G1 X82.711 Y110.212 E102.78737
G1 X82.481 Y109.435 E103.088
G1 X82.123 Y108.768 E103.36885
G1 X81.74 Y108.277 E103.59988
G1 X81.611 Y108.092 E103.68355
G1 X80.916 Y107.521 E104.01726
G1 X80.183 Y107.131 E104.3253
G1 X79.395 Y106.892 E104.6308
G1 X78.57 Y106.809 E104.93842
G1 X77.744 Y106.892 E105.24641
G1 X77.079 Y107.094 E105.50425
G1 X76.954 Y107.132 E105.55272
G1 X76.224 Y107.521 E105.85961
G1 X75.586 Y108.046 E106.16614
G1 X75.136 Y108.591 E106.42835
G1 X75.026 Y108.749 E106.49978
G1 X74.896 Y108.991 E106.60169
G1 X74.732 Y109.297 E106.7305
G1 X74.654 Y109.47 E106.8009
G1 X74.494 Y109.989 E107.00239
G1 X74.46 Y110.099 E107.04511
G1 X74.421 Y110.291 E107.11779
G1 X74.348 Y111.033 E107.39441
G1 X74.43 Y111.857 E107.70162
G1 X74.493 Y112.065 E107.78225
G1 X74.67 Y112.647 E108.00794
G1 X74.976 Y113.219 E108.24861
G1 X75.06 Y113.376 E108.31467
G1 X75.584 Y114.017 E108.62183
G1 X76.224 Y114.542 E108.92893
G1 X76.234 Y114.547 E108.93308
G1 X76.954 Y114.932 E109.23599
G1 X77.747 Y115.173 E109.54348
G0 F5400 X81.702 Y115.135
G1 F1800 X81.489 Y115.831 E109.81352
G1 X81.398 Y116.013 E109.88901
G1 X81.301 Y116.983 E110.25068
G1 X81.378 Y117.784 E110.54922
G1 X81.563 Y118.407 E110.79032
G1 X81.638 Y118.66 E110.88822
G1 X81.745 Y118.82 E110.95964
G1 X81.638 Y118.82
G1 X81.165 Y118.82 E111.08868
G1 X80.941 Y118.681 E111.17332
G1 X76.667 Y116.023 E113.0406
G1 X75.727 Y115.029 E113.54816
G1 X75.719 Y115.021 E113.55235
G1 X75.154 Y114.425 E113.83262
G1 X74.587 Y113.825 E114.10571
G1 X74.464 Y113.695 E114.16985
G1 X73.795 Y112.988 E114.53096
G1 X73.795 Y112.075 E114.86968
G1 X73.795 Y111.857 E114.94686
G1 X73.795 Y111.033 E115.20621
G1 X73.795 Y110.291 E115.43801
G1 X73.795 Y110.099 E115.50368
G1 X73.795 Y109.983 E115.54566
G1 X73.795 Y109.024 E115.90145
G1 X74.425 Y108.477 E116.21099
G1 X74.632 Y108.297 E116.30553
G1 X74.773 Y108.174 E116.36728
G1 X75.299 Y107.717 E116.54939
G1 X75.922 Y107.175 E116.74605
G1 X76.53 Y106.646 E116.98646
G1 X76.628 Y106.561 E117.03269
G1 X101.153 Y85.236 E129.09009
G1 X128.832 Y85.236 E139.35899
G1 X146.577 Y105.481 E149.34672
G1 X146.89 Y105.838 E149.52286
G1 X147.401 Y106.42 E149.8102
G1 X147.939 Y107.034 E150.11307
G1 X148.485 Y107.657 E150.42041
G1 X149.015 Y108.261 E150.71853
G1 X149.512 Y108.828 E150.99826
G1 X149.561 Y108.884 E151.02586
G1 X149.561 Y109.196 E151.14162
G1 X149.561 Y110.023 E151.44843
G1 X149.561 Y110.762 E151.7226
G1 X149.561 Y110.954 E151.79383
G1 X149.561 Y111.655 E152.05391
G1 X149.401 Y111.943 E152.17613
G1 X149.037 Y112.6 E152.45479
G1 X148.942 Y112.77 E152.52704
G1 X148.771 Y113.079 E152.65806
G1 X148.527 Y113.518 E152.8444
G1 X145.391 Y116.295 E154.39845
G1 X144.256 Y117.152 E154.92609
G1 X144.043 Y117.312 E155.02493
G1 X143.745 Y117.537 E155.16346
G1 X143.8 Y116.992 E155.25441
G1 X143.775 Y116.726 E155.33509
G1 X143.723 Y116.188 E155.53562
G1 X143.463 Y115.318 E155.8725
G1 X143.351 Y115.146 E155.94865
G1 X143.069 Y114.615 E156.1717
G1 X142.889 Y114.407 E156.27376
G1 X142.839 Y114.348 E156.30245
G1 X142.516 Y113.972 E156.48635
G1 X142.36 Y113.848 E156.56028
G1 X141.868 Y113.459 E156.79297
G1 X141.701 Y113.374 E156.86249
G1 X141.514 Y113.278 E156.94048
G1 X141.148 Y113.091 E157.09296
G1 X141.139 Y113.089 E157.09638
G1 X140.393 Y112.865 E157.38535
G1 X140.184 Y112.834 E157.46374
G1 X139.467 Y112.765 E157.73098
G1 X138.638 Y112.845 E158.03997
G1 X137.872 Y113.059 E158.33503
G1 X137.136 Y113.42 E158.63917
G1 X136.48 Y113.917 E158.9445
G1 X135.91 Y114.556 E159.26218
G1 X135.7 Y114.946 E159.42652
G1 X135.549 Y115.087 E159.50316
G1 X135.329 Y115.807 E159.78248
G1 X135.236 Y115.976 E159.85404
G1 X135.134 Y116.982 E160.22918
G1 X135.211 Y117.784 E160.52809
G1 X135.369 Y118.312 E160.73256
G1 X135.471 Y118.657 E160.86603
G1 X135.578 Y118.82 E160.93837
G1 X135.471 Y118.82
G1 X135.111 Y118.82 E161.03095
G1 X130.684 Y118.82 E162.67337
G1 X130.301 Y118.82 E162.81546
G1 X130.213 Y118.82 E162.84811
G1 X130.301 Y118.687 E162.87023
G1 X130.413 Y118.321 E162.96594
G1 X130.569 Y117.817 E163.16167
G1 X130.653 Y116.99 E163.47007
G1 X130.584 Y116.275 E163.73656
G1 X130.548 Y116.087 E163.80758
G1 X130.357 Y115.454 E164.05288
G1 X130.277 Y115.276 E164.12528
G1 X129.948 Y114.659 E164.3847
G1 X129.426 Y114.022 E164.69024
G1 X128.784 Y113.49 E164.99957
G1 X128.066 Y113.107 E165.30148
G1 X127.349 Y112.882 E165.58028
G1 X127.146 Y112.839 E165.65726
G1 X126.389 Y112.765 E165.93944
G1 X125.564 Y112.846 E166.24699
G1 X124.789 Y113.073 E166.5466
G1 X124.058 Y113.449 E166.85157
G1 X123.415 Y113.956 E167.15536
G1 X122.868 Y114.596 E167.46771
G1 X122.441 Y115.394 E167.80348
G1 X122.206 Y116.177 E168.10678
G1 X122.119 Y116.928 E168.38726
G1 X122.208 Y117.814 E168.71762
G1 X122.355 Y118.294 E168.90387
G1 X122.451 Y118.608 E169.02568
G1 X122.566 Y118.82 E169.11516
G1 X122.451 Y118.82
G1 X122.122 Y118.82 E169.20308
G1 X107.773 Y118.82 E174.52656
G1 X107.437 Y118.82 E174.65122
G1 X107.321 Y118.82 E174.69425
G1 X107.437 Y118.62 E174.73133
G1 X107.534 Y118.299 E174.82
G1 X107.594 Y118.101 E174.89675
G1 X107.673 Y117.922 E174.96934
G1 X107.766 Y116.987 E175.31794
G1 X107.684 Y116.159 E175.62663
G1 X107.441 Y115.366 E175.93434
G1 X107.1 Y114.733 E176.20109
G1 X106.992 Y114.572 E176.27301
G1 X106.592 Y114.087 E176.50625
G1 X106.456 Y113.95 E176.57787
G1 X105.91 Y113.503 E176.83966
G1 X105.246 Y113.141 E177.12023
G1 X105.057 Y113.062 E177.19623
G1 X104.335 Y112.846 E177.47583
G1 X103.508 Y112.765 E177.78411
G1 X102.681 Y112.846 E178.0924
G1 X101.891 Y113.082 E178.39828
G1 X101.164 Y113.459 E178.70211
G1 X100.577 Y113.938 E178.98319
G1 X100.05 Y114.539 E179.27974
G1 X99.721 Y115.106 E179.52295
G1 X99.6 Y115.29 E179.60465
G1 X99.333 Y116.159 E179.94192
G1 X99.251 Y116.984 E180.24951
G1 X99.319 Y117.695 E180.51449
G1 X99.355 Y117.884 E180.58587
G1 X99.469 Y118.263 E180.7327
G1 X99.546 Y118.519 E180.83188
G1 X99.691 Y118.82 E180.95584
G1 X99.546 Y118.82
G1 X99.278 Y118.82 E181.03258
G1 X89.796 Y118.82 E184.55041
G1 X89.752 Y118.82 E184.56673
G1 X89.554 Y118.82 E184.64019
G1 X89.752 Y118.172 E184.81588
G1 X89.773 Y118.134 E184.83146
G1 X89.847 Y118 E184.88825
G1 X89.952 Y116.992 E185.26424
G1 X89.873 Y116.188 E185.56397
G1 X89.613 Y115.316 E185.90155
G1 X89.505 Y115.152 E185.9744
G1 X89.178 Y114.542 E186.23118
G1 X89.029 Y114.407 E186.30577
G1 X88.685 Y113.985 E186.50776
G1 X88.026 Y113.464 E186.81943
G1 X87.305 Y113.092 E187.12043
G1 X86.55 Y112.865 E187.41292
G1 X86.34 Y112.834 E187.49167
G1 X85.625 Y112.765 E187.75817
G1 X84.797 Y112.845 E188.06679
G1 X84.03 Y113.059 E188.36221
G1 X83.296 Y113.422 E188.66601
G1 X82.623 Y113.933 E188.97951
G1 X82.343 Y114.274 E189.1432
G1 X82.167 Y114.385 E189.2204
G1 X81.843 Y114.988 E189.47436
G1 X81.702 Y115.135 E189.54993
G0 F5400 X114.281 Y95.147
G1 F1800 X115.148 Y95.229 E189.87303
G1 X115.999 Y95.141 E190.19043
G1 X116.57 Y94.965 E190.41211
G1 X116.766 Y94.913 E190.48734
G1 X117.551 Y94.49 E190.81816
G1 X118.205 Y93.949 E191.13305
G1 X118.746 Y93.28 E191.45225
G1 X119.147 Y92.527 E191.76876
G1 X119.392 Y91.707 E192.08627
G1 X119.474 Y90.856 E192.40345
G1 X119.412 Y90.223 E192.63942
G1 X119.406 Y90.049 E192.70401
G1 X119.213 Y89.412 E192.95095
G1 X119.167 Y89.227 E193.02167
G1 X118.747 Y88.437 E193.35361
G1 X118.21 Y87.773 E193.67043
G1 X117.549 Y87.228 E193.98827
G1 X117.013 Y86.938 E194.21436
G1 X116.832 Y86.832 E194.29218
G1 X115.983 Y86.572 E194.6216
G1 X115.131 Y86.486 E194.9393
G1 X114.276 Y86.573 E195.25814
G1 X113.702 Y86.75 E195.48099
G1 X113.499 Y86.802 E195.55874
G1 X112.711 Y87.227 E195.89089
G1 X112.057 Y87.767 E196.20555
G1 X111.515 Y88.437 E196.52527
G1 X111.115 Y89.191 E196.84193
G1 X110.87 Y90.01 E197.15908
G1 X110.788 Y90.862 E197.47663
G1 X110.85 Y91.495 E197.7126
G1 X110.856 Y91.668 E197.77682
G1 X111.048 Y92.3 E198.02188
G1 X111.095 Y92.491 E198.09485
G1 X111.517 Y93.281 E198.42714
G1 X112.05 Y93.941 E198.74187
G1 X112.713 Y94.492 E199.0617
G1 X113.273 Y94.792 E199.2974
G1 X113.423 Y94.883 E199.36249
G1 X114.281 Y95.147 E199.69553
G0 F5400 X144.127 Y114.163
G1 F1800 X144.952 Y114.243 E200.00304
G1 X145.778 Y114.163 E200.31092
G1 X146.569 Y113.92 E200.61792
G1 X147.298 Y113.532 E200.9243
G1 X147.935 Y113.008 E201.23031
G1 X148.161 Y112.735 E201.3618
G1 X148.387 Y112.463 E201.48684
G1 X148.498 Y112.302 E201.55287
G1 X148.851 Y111.639 E201.80028
G1 X148.908 Y111.454 E201.86595
G1 X149.062 Y110.954 E202.02509
G1 X149.101 Y110.762 E202.07517
G1 X149.174 Y110.023 E202.24222
G1 X149.094 Y109.196 E202.43061
G1 X149.047 Y109.042 E202.46579
G1 X148.851 Y108.405 E202.58947
G1 X148.463 Y107.677 E202.65418
G1 X147.937 Y107.036 E202.66153
G1 X147.298 Y106.511 E202.69484
G1 X146.568 Y106.121 E202.82739
G1 X146.113 Y105.983 E202.97085
G1 X145.775 Y105.88 E203.10194
G1 X144.952 Y105.8 E203.40872
G1 X144.13 Y105.88 E203.71512
G1 X143.337 Y106.121 E204.02261
G1 X142.608 Y106.511 E204.32934
G1 X141.967 Y107.036 E204.63673
G1 X141.442 Y107.677 E204.94413
G1 X141.052 Y108.406 E205.25086
G1 X140.811 Y109.199 E205.55835
G1 X140.731 Y110.021 E205.86475
G1 X140.811 Y110.841 E206.17041
G1 X141.041 Y111.618 E206.47104
G1 X141.399 Y112.285 E206.75189
G1 X141.688 Y112.657 E206.92666
G1 X141.694 Y112.664
G1 X141.775 Y112.767 E206.96582
G1 X141.911 Y112.962 E207.03297
G1 X142.128 Y113.139 E207.10452
G1 X142.609 Y113.532 E207.23804
G1 X142.719 Y113.59 E207.25996
G1 X143.336 Y113.92 E207.47077
G1 X143.41 Y113.942 E207.49853
G1 X144.127 Y114.163 E207.77688
G0 F5400 X144.265 Y113.473
G1 F1800 X144.952 Y113.54 E208.03297
G1 X145.64 Y113.473 E208.28943
G1 X146.299 Y113.271 E208.54514
G1 X146.907 Y112.947 E208.80074
G1 X147.439 Y112.51 E209.05616
G1 X147.828 Y112.04 E209.28251
G1 X147.899 Y111.937 E209.32892
G1 X148.202 Y111.369 E209.56776
G1 X148.383 Y110.781 E209.79601
G1 X148.408 Y110.658 E209.84257
G1 X148.471 Y110.022 E210.07968
G1 X148.404 Y109.334 E210.33614
G1 X148.202 Y108.675 E210.59186
G1 X147.878 Y108.067 E210.84745
G1 X147.44 Y107.533 E211.10369
G1 X146.907 Y107.096 E211.3594
G1 X146.299 Y106.771 E211.61517
G1 X145.638 Y106.57 E211.87149
G1 X144.952 Y106.503 E212.1272
G1 X144.267 Y106.57 E212.38255
G1 X143.606 Y106.771 E212.63887
G1 X142.998 Y107.096 E212.89464
G1 X142.464 Y107.533 E213.15064
G1 X142.027 Y108.067 E213.40663
G1 X141.702 Y108.675 E213.66241
G1 X141.501 Y109.336 E213.91872
G1 X141.434 Y110.021 E214.17407
G1 X141.501 Y110.706 E214.42942
G1 X141.692 Y111.35 E214.67863
G1 X141.988 Y111.902 E214.91101
G1 X142.35 Y112.367 E215.12964
G1 X142.43 Y112.482 E215.18161
G1 X142.999 Y112.947 E215.45423
G1 X143.606 Y113.271 E215.7095
G1 X144.265 Y113.473 E215.96522
G0 F5400 X114.419 Y94.457
G1 F1800 X115.145 Y94.526 E216.23578
G1 X115.858 Y94.452 E216.50173
G1 X116.381 Y94.29 E216.70485
G1 X116.508 Y94.257 E216.75353
G1 X117.158 Y93.907 E217.02742
G1 X117.705 Y93.454 E217.29092
G1 X118.16 Y92.892 E217.55918
G1 X118.496 Y92.26 E217.82473
G1 X118.702 Y91.572 E218.09118
G1 X118.771 Y90.857 E218.35767
G1 X118.715 Y90.292 E218.56832
G1 X118.71 Y90.167 E218.61473
G1 X118.538 Y89.601 E218.8342
G1 X118.508 Y89.479 E218.88081
G1 X118.16 Y88.825 E219.15565
G1 X117.71 Y88.268 E219.42131
G1 X117.156 Y87.811 E219.68775
G1 X116.68 Y87.554 E219.88844
G1 X116.549 Y87.477 E219.94482
G1 X115.844 Y87.262 E220.21827
G1 X115.131 Y87.19 E220.48414
G1 X114.416 Y87.262 E220.75074
G1 X113.888 Y87.425 E220.95575
G1 X113.756 Y87.459 E221.00632
G1 X113.104 Y87.811 E221.28122
G1 X112.557 Y88.262 E221.54424
G1 X112.102 Y88.825 E221.81279
G1 X111.766 Y89.458 E222.07867
G1 X111.56 Y90.145 E222.34476
G1 X111.491 Y90.861 E222.61162
G1 X111.547 Y91.426 E222.82227
G1 X111.552 Y91.55 E222.86831
G1 X111.724 Y92.117 E223.08813
G1 X111.754 Y92.239 E223.13474
G1 X112.103 Y92.893 E223.40976
G1 X112.551 Y93.447 E223.67409
G1 X113.106 Y93.908 E223.94176
G1 X113.615 Y94.181 E224.15605
G1 X113.711 Y94.239 E224.19766
G1 X114.419 Y94.457 E224.4725
G0 F5400 X83.829 Y114.286
G0 X82.323 Y115.499
G1 F1800 X82.141 Y116.093 E224.70298
G1 X82.082 Y116.211 E224.75193
G1 X82.004 Y116.985 E225.04054
G1 X82.068 Y117.649 E225.28802
G1 X82.279 Y118.359 E225.56282
G1 X82.35 Y118.465 E225.61015
G1 X82.564 Y118.867 E225.77911
G1 X82.631 Y118.994 E225.83238
G1 X82.728 Y119.081 E225.88072
